!!!!SEGMENT: pl-cz--iii-107--001_dankowski-adalbert--vesperae-es-dixit-dominus.krn
!!!cenid: 18xx:761
!!!COM: Dankowski, Adalbert
!!!COM-rismid: pe30000793
!!!CDT: ~1760-~1836
!!!CNT: Polish
!!!OPR: Vesperae Es
!!!OTL: Dixit Dominus
!!!OMV: 001
!!!PDT: 1825
!!!AGN: Sacred; Vespers
!!!SMS-siglum: PL-CZ
!!!SMS-shelfmark: III-107
!!!SMS-shelfwork: 001-001 M
!!!SMS-variant:
!!!SMS-altvar:
!!!NIFC-rismid: 300000115
!!!URL-scan: http://repozytorium.nifc.pl/skany/pl-cz-nut--iii-107
!!!ONB-nifc: UWAGA: części Vesperae: Dixit Dominus, Tecum principium, Iudicabit, De torrente, Gloria patri, Sicut erat, Magnificat, Et exsultavit, Quia fecit, Deposuit potentes, Gloria patri, Sicut erat
!!!key: E-
**kern	**dynam	**kern	**dynam	**kern	**dynam	**kern	**text	**kern	**text	**kern	**text	**kern	**text	**kern	**dynam	**kern	**kern	**kern	**dynam
*part11	*part11	*part10	*part10	*part9	*part9	*part8	*part8	*part7	*part7	*part6	*part6	*part5	*part5	*part4	*part4	*part3	*part2	*part1	*part1
*staff11	*	*staff10	*	*staff9	*	*staff8	*staff8	*staff7	*staff7	*staff6	*staff6	*staff5	*staff5	*staff4	*	*staff3	*staff2	*staff1	*
*I"Organo.	*	*I"Violino Secondo.	*	*I"Violino Primo.	*	*I"Baſso	*	*I"Tenore	*	*I"Alto!	*	*I"Soprano.	*	*I"Corno Secondo. in Dis Obligato.	*	*I"Corno Prymo in Dis Obligato	*I"Clarinetto Secundo in Dis	*I"Clarinetto. Primo. in Dis.	*
*I'org	*	*I'vl2	*	*I'vl1	*	*I'B	*	*I'T	*	*I'A	*	*I'S	*	*I'cor2	*	*I'cor1	*I'Cl.	*I'Cl.	*
*Iorgan	*	*Ivioln	*	*Ivioln	*	*Ibass	*	*Itenor	*	*Ialto	*	*Isoprn	*	*Icor	*	*Icor	*Iclarb	*Iclarb	*
*ICklav	*	*ICstr	*	*ICstr	*	*ICvox	*	*ICvox	*	*ICvox	*	*ICvox	*	*ICbras	*	*ICbras	*ICww	*ICww	*
*clefF4	*	*clefG2	*	*clefG2	*	*clefF4	*	*clefC4	*	*clefC3	*	*clefC1	*	*clefG2	*	*clefG2	*clefG2	*clefG2	*
*	*	*	*	*	*	*	*	*	*	*	*	*	*	*ITrd5c9	*	*ITrd5c9	*ITrd1c2	*ITrd1c2	*
*k[b-e-a-]	*	*k[b-e-a-]	*	*k[b-e-a-]	*	*k[a-b-e-]	*	*k[b-e-a-]	*	*k[b-e-a-]	*	*k[b-a-e-]	*	*k[b-e-a-]	*	*k[b-e-a-]	*k[b-e-a-]	*k[b-e-a-]	*
*E-:	*	*E-:	*	*E-:	*	*E-:	*	*E-:	*	*E-:	*	*E-:	*	*	*	*	*E-:	*E-:	*
*M4/4	*	*M4/4	*	*M4/4	*	*M4/4	*	*M4/4	*	*M4/4	*	*M4/4	*	*M4/4	*	*M4/4	*M4/4	*M4/4	*
*met(c)	*	*met(c)	*	*met(c)	*	*met(c)	*	*met(c)	*	*met(c)	*	*met(c)	*	*met(c)	*	*met(c)	*met(c)	*met(c)	*
=1	=1	=1	=1	=1	=1	=1	=1	=1	=1	=1	=1	=1	=1	=1	=1	=1	=1	=1	=1
*	*	*	*	*	*below	*all\right or left	*	*	*	*	*	*	*	*	*	*all\right	*all\right	*	*
!	!	!	!	!	!	!	!	!	!	!	!	!	!	!	!	!	!	!	!
!	!	!	!	!	!	!	!	!	!	!	!	!	!	!	!	!	!	!	!
!	!	!	!	!	!	!	!	!	!	!	!	!	!	!	!	!LO:TX:a:t=3	!LO:TX:a:i:t=Solo	!LO:TX:b:rj:t=Solo.	!
!LO:TX:a:t=3.	!	!	!	!	!	!LO:TX:t=P:problem=znaki A- BB- (jeden nad drugim) E-	!	!LO:TX:t=P:problem=znaki B- E- A-	!	!LO:TX:a:t=4.	!	!LO:TX:a:t=4	!	!LO:TX:a:rj:t=Maiestoſo. Lento.	!	!LO:TX:t=P:problem=partia faktycznie in E-	!LO:TX:a:rj:t=Maestoso Lento	!LO:TX:a:rj:t=Maestoso. Lent.	!
!LO:TX:a:i:t=Majestoso Lento	!	!	!	!	!	!LO:TX:a:t=4	!	!LO:TX:a:t=4	!	!	!	!LO:TX:t=P:problem=znaki b- a- ee-	!	!.	!	!	!	!	!
!	!	!LO:TX:a:i:rj:t=Majestoso Lento&colon;	!LO:DY:rj:t=p&colon;	!LO:TX:a:i:rj:t=Majestoso Lento	!LO:DY:rj	!LO:TX:a:i:rj:t=Majestoso Lente	!	!LO:TX:a:i:rj:t=Majestoso Lente	!	!LO:TX:a:rj:t=Lento \nMaestoso,	!	!LO:TX:a:rj:t=Majestoſo Lento	!	!LO:TX:t=P:problem=partia faktycznie in E-	!	!LO:TX:a:i:rj:t=Maiestoſo Lento	!LO:TX:t=P:problem=partia faktycznie in B-	!LO:TX:t=P:problem=partia faktycznie in B-	!
1r	.	(16e-/LL	p	(16e-/LL	p	00r	.	00r	.	00r	.	00r	.	0r	.	0r	8.gg\L	8.bb-\L	.
.	.	16g/)	.	16g/)	.	.	.	.	.	.	.	.	.	.	.	.	.	.	.
.	.	(16e-/	.	(16e-/	.	.	.	.	.	.	.	.	.	.	.	.	.	.	.
!	!	!	!	!	!	!	!	!	!	!	!	!	!	!	!	!	!	!	!
.	.	16g/JJ)	.	16g/JJ)	.	.	.	.	.	.	.	.	.	.	.	.	16ff\Jk	16aa-\Jk	.
.	.	(16e-/LL	.	(16e-/LL	.	.	.	.	.	.	.	.	.	.	.	.	(16ee-\LL	(16gg\LL	.
.	.	16g/)	.	16g/)	.	.	.	.	.	.	.	.	.	.	.	.	16dd\	16ff\)	.
.	.	(16e-/	.	(16e-/	.	.	.	.	.	.	.	.	.	.	.	.	16ee-\)	16gg'\	.
.	.	16g/JJ)	.	16g/JJ)	.	.	.	.	.	.	.	.	.	.	.	.	16gg\JJ	16bb-'\JJ	.
*	*	*tremolo	*	*	*	*	*	*	*	*	*	*	*	*	*	*	*	*	*
.	.	(16f/LL	.	(16f/LL	.	.	.	.	.	.	.	.	.	.	.	.	16ff\LL	(16aa-\LL	.
.	.	16a-/	.	16a-/)	.	.	.	.	.	.	.	.	.	.	.	.	16dd\JJ	16ff\JJ)	.
!	!	!	!	!	!	!	!	!	!	!	!	!	!	!	!	!	!	!	!
.	.	16f/	.	(16f/	.	.	.	.	.	.	.	.	.	.	.	.	4dd\	4ff\	.
.	.	16a-/	.	16a-/JJ)	.	.	.	.	.	.	.	.	.	.	.	.	.	.	.
.	.	16f/	.	(16f/LL	.	.	.	.	.	.	.	.	.	.	.	.	.	.	.
.	.	16a-/	.	16a-/)	.	.	.	.	.	.	.	.	.	.	.	.	.	.	.
.	.	16f/	.	(16f/	.	.	.	.	.	.	.	.	.	.	.	.	8r	8r	.
.	.	16a-/)JJ	.	16a-/JJ)	.	.	.	.	.	.	.	.	.	.	.	.	.	.	.
=2	=2	=2	=2	=2	=2	=2	=2	=2	=2	=2	=2	=2	=2	=2	=2	=2	=2	=2	=2
1r	.	(16d/LL	.	(16d/LL	.	.	.	.	.	.	.	.	.	.	.	.	8.ff\L	8.aa-\L	.
.	.	16f/	.	16f/)	.	.	.	.	.	.	.	.	.	.	.	.	.	.	.
.	.	16d/	.	(16d/	.	.	.	.	.	.	.	.	.	.	.	.	.	.	.
.	.	16f/	.	16f/JJ)	.	.	.	.	.	.	.	.	.	.	.	.	16ee-\Jk	16gg\Jk	.
.	.	16d/	.	(16d/LL	.	.	.	.	.	.	.	.	.	.	.	.	16dd\LL	(16ff\LL	.
.	.	16f/	.	16f/)	.	.	.	.	.	.	.	.	.	.	.	.	16cc\	16ee-\)	.
!	!	!	!	!	!	!	!	!	!	!	!	!	!	!	!	!	!LO:SIC:v:s=16ee\	!	!
.	.	16d/	.	(16d/	.	.	.	.	.	.	.	.	.	.	.	.	16ee-\	16ff'\	.
.	.	16f/)JJ	.	16f/JJ)	.	.	.	.	.	.	.	.	.	.	.	.	16ff\JJ	16aa-'\JJ	.
!	!	!	!	!	!	!	!	!	!	!	!	!	!	!	!	!	!LO:TX:t=P:problem=mixed beam	!	!
.	.	(16e-/LL	.	(16e-/LL	.	.	.	.	.	.	.	.	.	.	.	.	16ee-\LL	16gg\LL	.
!	!	!	!	!	!	!	!	!	!	!	!	!	!	!	!	!	!	!	!
.	.	16g/	.	16g/)	.	.	.	.	.	.	.	.	.	.	.	.	16g/JJ	16ee-\JJ	.
.	.	16e-/	.	(16e-/	.	.	.	.	.	.	.	.	.	.	.	.	4g/	4ee-\	.
.	.	16g/	.	16g/JJ)	.	.	.	.	.	.	.	.	.	.	.	.	.	.	.
.	.	16e-/	.	(16e-/LL	.	.	.	.	.	.	.	.	.	.	.	.	.	.	.
.	.	16g/	.	16g/)	.	.	.	.	.	.	.	.	.	.	.	.	.	.	.
.	.	16e-/	.	(16e-/	.	.	.	.	.	.	.	.	.	.	.	.	8r	8r	.
.	.	16g/)JJ	.	16g/JJ)	.	.	.	.	.	.	.	.	.	.	.	.	.	.	.
!	!	!	!	!LO:LB:g=original	!	!	!	!	!	!	!	!	!	!	!	!	!	!	!
=3	=3	=3	=3	=3	=3	=3	=3	=3	=3	=3	=3	=3	=3	=3	=3	=3	=3	=3	=3
1r	.	(16e-/LL	.	(16e-/LL	.	.	.	.	.	.	.	.	.	1r	.	1r	4gg\	4bb-\	.
.	.	16g/	.	16g/)	.	.	.	.	.	.	.	.	.	.	.	.	.	.	.
.	.	16e-/	.	(16e-/	.	.	.	.	.	.	.	.	.	.	.	.	.	.	.
.	.	16g/	.	16g/JJ)	.	.	.	.	.	.	.	.	.	.	.	.	.	.	.
.	.	16e-/	.	(16e-/LL	.	.	.	.	.	.	.	.	.	.	.	.	(16aa-\LL	(16ccc\LL	.
.	.	16g/	.	16g/)	.	.	.	.	.	.	.	.	.	.	.	.	16gg\	16bb-\	.
.	.	16e-/	.	(16e-/	.	.	.	.	.	.	.	.	.	.	.	.	16ff\)	16aa-\	.
.	.	16g/)JJ	.	16g/JJ)	.	.	.	.	.	.	.	.	.	.	.	.	16ee-\JJ	16gg\JJ)	.
.	.	(16d/LL	.	(16d/LL	.	.	.	.	.	.	.	.	.	.	.	.	(16ee-\LL	(16gg\LL	.
.	.	16f/	.	16f/)	.	.	.	.	.	.	.	.	.	.	.	.	16dd\JJ)	16ff\JJ)	.
.	.	16d/	.	(16d/	.	.	.	.	.	.	.	.	.	.	.	.	4dd\	4ff\	.
.	.	16f/	.	16f/JJ)	.	.	.	.	.	.	.	.	.	.	.	.	.	.	.
.	.	16d/	.	(16d/LL	.	.	.	.	.	.	.	.	.	.	.	.	.	.	.
.	.	16f/	.	16f/)	.	.	.	.	.	.	.	.	.	.	.	.	.	.	.
.	.	16d/	.	(16d/	.	.	.	.	.	.	.	.	.	.	.	.	16ee-\LL	16gg\LL	.
.	.	16f/)JJ	.	16f/JJ)	.	.	.	.	.	.	.	.	.	.	.	.	16ff\JJ	16aa-\JJ	.
*	*	*Xtremolo	*	*	*	*	*	*	*	*	*	*	*	*	*	*	*	*	*
!	!	!	!	!	!	!	!	!	!	!	!	!	!	!	!	!	!LO:LB:g=original	!	!
=4	=4	=4	=4	=4	=4	=4	=4	=4	=4	=4	=4	=4	=4	=4	=4	=4	=4	=4	=4
!	!	!	!	!	!	!	!	!	!	!	!	!	!	!LO:TX:a:i:t=Solo.	!	!	!	!	!
8r	.	8e-/L	.	8e-/L|	.	.	.	.	.	.	.	.	.	8r	.	8r	8.ee-\L	8.gg\L	.
!LO:TX:t=P:problem=mixed beam	!	!	!	!	!	!	!	!	!	!	!	!	!	!	!	!	!	!	!
8E-\L	.	(16e-/L	.	(16g/L	.	.	.	.	.	.	.	.	.	8g\	.	8b-\	.	.	.
.	.	16g/JJ)	.	16b-/JJ)	.	.	.	.	.	.	.	.	.	.	.	.	16gg\Jk	16bb-\Jk	.
!	!	!	!	!	!	!	!	!	!	!	!	!	!	!	!	!	!	!	!
8B-\	.	(16g/LL	.	(16b-/LL	.	.	.	.	.	.	.	.	.	16g\LL	.	16b-\LL	16gg\LL	16bb-\LL	.
.	.	16f/	.	16a-/	.	.	.	.	.	.	.	.	.	16f\	.	16a-\	(16ff\	16aa-\	.
!	!	!	!	!	!	!	!	!	!	!	!	!	!	!	!	!	!LO:SIC:v:s=16c\)	!	!
8BB-\J	.	16e-/	.	16g/	.	.	.	.	.	.	.	.	.	16e-\	.	16g\	16b--X\)	16gg\	.
.	.	16d/JJ)	.	16f/JJ)	.	.	.	.	.	.	.	.	.	16B-\JJ	.	16f\JJ	16a-\JJ	16ff\JJ	.
!LO:TX:t=P:problem=mixed beam	!	!	!	!	!	!	!	!	!	!	!	!	!	!	!	!	!	!LO:LB:g=original	!
8E-/L	.	8e-/L	.	8g/L	.	.	.	.	.	.	.	.	.	8G/L	.	8e-\L	8g/L	8ee-\L	.
8EE-/	.	8e-/	.	8g/	.	.	.	.	.	.	.	.	.	8G/	.	8e-\	(32g/LL	(32ee-\LL	.
.	.	.	.	.	.	.	.	.	.	.	.	.	.	.	.	.	32f/	32dd\	.
.	.	.	.	.	.	.	.	.	.	.	.	.	.	.	.	.	32g/	32ee-\	.
.	.	.	.	.	.	.	.	.	.	.	.	.	.	.	.	.	32a-/JJJ)	32ff\JJJ)	.
8EE-/J	.	8e-/J	.	8g/J	.	.	.	.	.	.	.	.	.	8G/J	.	8e-\J	8g/	8ee-\	.
8r	.	8r	.	8r	.	.	.	.	.	.	.	.	.	8r	.	8r	8r	8r	.
!	!	!LO:LB:g=original	!	!	!	!	!	!	!	!	!	!	!	!	!	!	!	!	!
=5	=5	=5	=5	=5	=5	=5	=5	=5	=5	=5	=5	=5	=5	=5	=5	=5	=5	=5	=5
*	*	*	*	*	*	*	*	*	*	*	*	*	*	*2\right	*	*2\right	*2\right	*2\right	*
!	!	!	!	!	!	!	!	!	!	!	!	!	!	!	!	!	!	!	!
!LO:TX:a:i:t=Tutti.	!	!	!	!	!LO:DY:t=for	!	!	!	!	!	!	!	!	!LO:N:vis=2.	!	!LO:TX:a:i:t=Solo	!LO:TX:a:i:t=Solo	!	!
8E-\L	.	(16gg\LL	.	16gg\LL	f	4.E-\	Di-	4.B-\	Di-	4.g\	Di-	4.ee-\	di-	2e-\	.	2g\	2b-\	2gg\	.
.	.	16ee-\JJ)	f	16ee-\JJ	.	.	.	.	.	.	.	.	.	.	.	.	.	.	.
8E-\	.	16r	.	16r	.	.	.	.	.	.	.	.	.	.	.	.	.	.	.
.	.	16ee-\	.	16ee-\	.	.	.	.	.	.	.	.	.	.	.	.	.	.	.
8E-\	.	(16gg\LL	.	(16gg\LL	.	.	.	.	.	.	.	.	.	.	.	.	.	.	.
.	.	16ee-\)	.	16ee-\	.	.	.	.	.	.	.	.	.	.	.	.	.	.	.
!	!	!	!	!	!	!	!	!	!	!	!	!	!	!	!	!	!	!	!
!	!	!	!	!	!	!	!	!	!	!	!	!	!	!	!	!	!	!	!
8E-\J	.	(16bb-\	.	16bb-\)	.	8E-\	-xit	8B-\	-xit	8g\	-xit	8ee-\	-xit	.	.	.	.	.	.
.	.	16gg\JJ)	.	16gg\JJ	.	.	.	.	.	.	.	.	.	.	.	.	.	.	.
!LO:TX:t=P:problem=mixed beam	!	!	!	!	!	!	!	!	!	!	!	!	!	!	!	!	!	!	!
8B-\L	.	(16gg\LL	.	16gg\LL	.	16B-\	Do-	16B-\	Do-	16g\	Do-	16ee-\	do-	8.B-\L	.	8.f\L	8.dd\L	8.ff\L	.
.	.	16ff\J)	.	16ff\J	.	16B-\	-mi-	16B-\	-mi-	16f\	-mi-	16dd\	-mi-	.	.	.	.	.	.
!	!	!	!	!	!	!LO:N:vis=4	!	!	!	!	!	!	!	!	!	!	!	!	!
8BB-\J	.	8ff\J	.	8ff\J	.	8BB-/	-nus	8B-\	-nus	8f\	-nus	8dd\	-nus	.	.	.	.	.	.
.	.	.	.	.	.	.	.	.	.	.	.	.	.	16f\Jk	.	16a-\Jk	16ff\Jk	16aa-\Jk	.
4r	.	4r	.	4r	.	4r	.	4r	.	4r	.	4r	.	16f\LL	.	16a-\LL	(16ff\LL	(16aa-\LL	.
.	.	.	.	.	.	.	.	.	.	.	.	.	.	16e-\	.	16g\	16ee-\)	16gg\)	.
.	.	.	.	.	.	.	.	.	.	.	.	.	.	16e-\	.	16g\	(16ee-\	(16gg\	.
.	.	.	.	.	.	.	.	.	.	.	.	.	.	16B-\JJ	.	16f\JJ	16dd\JJ)	16ff\JJ)	.
!	!	!	!	!LO:LB:g=original	!	!	!	!	!	!	!	!	!	!	!	!	!	!	!
=6	=6	=6	=6	=6	=6	=6	=6	=6	=6	=6	=6	=6	=6	=6	=6	=6	=6	=6	=6
*tremolo	*	*	*	*	*	*	*	*	*	*	*	*	*	*	*	*	*	*	*
8BB-/L	.	(16ff\LL	.	16ff\LL	.	4B-\	Do-	4d\	Do-	4a-\	Do-	4ff\	do-	2B-/	.	2f\	2dd\	2ff\	.
.	.	16dd\JJ)	.	16dd\JJ	.	.	.	.	.	.	.	.	.	.	.	.	.	.	.
8BB-/	.	16r	.	16r	.	.	.	.	.	.	.	.	.	.	.	.	.	.	.
.	.	16dd\	.	16dd\	.	.	.	.	.	.	.	.	.	.	.	.	.	.	.
8BB-/	.	(16ff\LL	.	(16ff\LL	.	8B-\	-mi-	8d\	-mi-	8a-\	-mi-	8ff\	-mi-	.	.	.	.	.	.
.	.	16dd\)	.	16dd\)	.	.	.	.	.	.	.	.	.	.	.	.	.	.	.
8BB-/J	.	(16aa-\	.	(16aa-\	.	8B-\	-no	8d\	-no	8a-\	-no	8ff\	-no	.	.	.	.	.	.
.	.	16ff\JJ)	.	16ff\JJ)	.	.	.	.	.	.	.	.	.	.	.	.	.	.	.
!LO:TX:t=P:problem=mixed beam	!	!	!	!	!	!	!	!	!	!	!	!	!	!	!	!	!	!	!
8E-/L	.	16ff\LL	.	(16ff\LL	.	8e-\	me-	8B-\	me-	(16a-\LL	me-	16ff\LL	me-	8.e-\L	.	8.g\L	8.ee-\L	8.gg\L	.
.	.	16ee-\J	.	16ee-\J)	.	.	.	.	.	16g\JJ)	.	16ee-\JJ	.	.	.	.	.	.	.
8EE-/J	.	8ee-\J	.	8ee-\J	.	8E-\	-o	8B-\	-o	8g\	-o	4ee-\	-o	.	.	.	.	.	.
.	.	.	.	.	.	.	.	.	.	.	.	.	.	16g\Jk	.	16b-\Jk	16gg\Jk	16bb-\Jk	.
4r	.	4r	.	4r	.	4r	.	4r	.	4r	.	.	.	16g\LL	.	16b-\LL	(16gg\LL	(16bb-\LL	.
.	.	.	.	.	.	.	.	.	.	.	.	.	.	16f\	.	16a-\	16ff\)	16aa-\)	.
!	!	!	!	!	!	!	!	!	!	!	!	!LO:N:vis=4	!	!	!	!	!	!	!
.	.	.	.	.	.	.	.	.	.	.	.	8r	.	16f\	.	16a-\	(16ff\	(16aa-\	.
.	.	.	.	.	.	.	.	.	.	.	.	.	.	16e-\JJ	.	16g\JJ	16ee-\JJ)	16gg\JJ)	.
!	!	!	!	!	!	!	!	!	!	!	!	!	!	!	!	!LO:LB:g=original	!	!	!
=7	=7	=7	=7	=7	=7	=7	=7	=7	=7	=7	=7	=7	=7	=7	=7	=7	=7	=7	=7
*	*	*^	*	*	*	*	*	*	*	*	*	*	*	*	*	*	*	*	*
!LO:TX:a:t=1.	!	!	!	!LO:DY:rj	!	!	!LO:TX:a:t=1	!	!LO:TX:a:t=1	!	!LO:TX:a:t=1.	!	!	!	!	!	!	!	!	!
1r	.	16g/LL	16e-\LL	p	16g/LL	p	1r	.	1r	.	1r	.	4bb-\	se-	8e-\	.	4g\	8ee-\	8gg\	.
.	.	16g/	16e-\	.	16g/	.	.	.	.	.	.	.	.	.	.	.	.	.	.	.
.	.	16g/	16e-\	.	16g/	.	.	.	.	.	.	.	.	.	8r	.	.	8r	8r	.
.	.	16g/JJ	16e-\JJ	.	16g/JJ	.	.	.	.	.	.	.	.	.	.	.	.	.	.	.
*	*	*tremolo	*	*	*tremolo	*	*	*	*	*	*	*	*	*	*	*	*	*	*	*
.	.	16e-/LL	4ryy	.	16g/LL	.	.	.	.	.	.	.	16gg\LL	-de	4r	.	4r	4r	4r	.
.	.	16e-/	.	.	16g/	.	.	.	.	.	.	.	16ee-\JJ	.	.	.	.	.	.	.
.	.	16e-/	.	.	16g/	.	.	.	.	.	.	.	16ee-\LL	se	.	.	.	.	.	.
.	.	16e-/JJ	.	.	16g/JJ	.	.	.	.	.	.	.	16dd\JJ	.	.	.	.	.	.	.
!	!	!	!	!	!	!	!	!	!	!	!	!	!LO:LB:g=original	!	!	!	!	!	!	!
.	.	16d/LL	2ryy	.	16f/LL	.	.	.	.	.	.	.	4dd\	de	2r	.	2r	2r	2r	.
.	.	16d/	.	.	16f/	.	.	.	.	.	.	.	.	.	.	.	.	.	.	.
.	.	16d/	.	.	16f/	.	.	.	.	.	.	.	.	.	.	.	.	.	.	.
.	.	16d/JJ	.	.	16f/	.	.	.	.	.	.	.	.	.	.	.	.	.	.	.
.	.	16d/LL	.	.	16f/	.	.	.	.	.	.	.	8ff\	a	.	.	.	.	.	.
.	.	16d/	.	.	16f/	.	.	.	.	.	.	.	.	.	.	.	.	.	.	.
.	.	16d/	.	.	16f/	.	.	.	.	.	.	.	8ryy	.	.	.	.	.	.	.
.	.	16d/JJ	.	.	16f/JJ	.	.	.	.	.	.	.	.	.	.	.	.	.	.	.
*	*	*	*	*	*Xtremolo	*	*	*	*	*	*	*	*	*	*	*	*	*	*	*
*	*	*v	*v	*	*	*	*	*	*	*	*	*	*	*	*	*	*	*	*	*
!	!	!	!	!	!	!	!	!	!	!LO:LB:g=original	!	!	!	!LO:LB:g=original	!	!	!	!	!
=8	=8	=8	=8	=8	=8	=8	=8	=8	=8	=8	=8	=8	=8	=8	=8	=8	=8	=8	=8
.	.	.	.	.	.	.	.	.	.	.	.	8qff/	.	.	.	.	.	.	.
2r	.	16e-/LL	.	16g/LL	.	2r	.	2r	.	2r	.	16ee-\LL	dex-	2r	.	2r	2r	2r	.
.	.	16e-/	.	16g/	.	.	.	.	.	.	.	32dd\L	.	.	.	.	.	.	.
.	.	.	.	.	.	.	.	.	.	.	.	32ee-\JJJ	.	.	.	.	.	.	.
.	.	16e-/	.	16a-/	.	.	.	.	.	.	.	32ff\LLL	.	.	.	.	.	.	.
.	.	.	.	.	.	.	.	.	.	.	.	32ee-\JJJ	.	.	.	.	.	.	.
.	.	16e-/JJ	.	16a-/JJ	.	.	.	.	.	.	.	32dd\LLL	-tris	.	.	.	.	.	.
.	.	.	.	.	.	.	.	.	.	.	.	32cc\JJJ	.	.	.	.	.	.	.
.	.	16B-/LL	.	16g/LL	.	.	.	.	.	.	.	8b-\L	me-	.	.	.	.	.	.
.	.	16B-/	.	16g/	.	.	.	.	.	.	.	.	.	.	.	.	.	.	.
.	.	16B-/	.	16f/	.	.	.	.	.	.	.	8a-\J	.	.	.	.	.	.	.
.	.	16B-/JJ	.	16f/JJ	.	.	.	.	.	.	.	.	.	.	.	.	.	.	.
*	*	*Xtremolo	*	*	*	*	*	*	*	*	*	*	*	*	*	*	*	*	*
!	!	!LO:LB:g=original	!	!	!	!	!	!	!	!	!	!	!	!	!	!	!	!	!
!	!	!LO:TX:t=P:problem=mixed beam	!	!	!LO:DY:t=for	!	!	!	!	!	!	!	!	!	!	!	!	!	!
8r	.	16e-/LL	.	16g\LL	f	8r	.	8r	.	8r	.	8g\	-is	8r	.	8r	8r	8r	.
.	.	16ee-\	.	16ee-\	.	.	.	.	.	.	.	.	.	.	.	.	.	.	.
!	!	!	!LO:DY:t=f.	!	!	!	!	!	!	!	!	!	!	!	!	!	!	!	!
8E-\L	.	16gg\	f	16gg\	.	8E-\	se-	8G/	se-	8b-\	se-	8ee-\	se-	8e-/L	.	8g\L	8dd\L	8gg\L	.
.	.	16ee-\JJ	.	16ee-\JJ	.	.	.	.	.	.	.	.	.	.	.	.	.	.	.
8D\	.	16ff\LL	.	16ff\LL	.	8D\	-de	8A-/	-de	8b-\	-de	8ff\	-de	8B-/	.	8f\	8ff\	8aa-\	.
.	.	16b-\	.	16dd\	.	.	.	.	.	.	.	.	.	.	.	.	.	.	.
8D\J	.	16aa-\	.	16aa-\	.	8D\	a	8A-/	a	8b-\	a	8ff\	a	8B-/J	.	8f\J	8ff\J	8aa-\J	.
!	!	!	!	!LO:TX:t=P:problem= wszystkie custos użyte jako łamanie pięciolinii	!	!	!	!	!	!	!	!	!	!	!	!	!	!	!
!	!	!	!	!LO:SIC:v:t=custos dd	!	!	!	!	!	!	!	!	!	!	!	!	!	!	!
.	.	16ff\JJ	.	16ff\JJ	.	.	.	.	.	.	.	.	.	.	.	.	.	.	.
!	!	!	!	!LO:LB:g=original	!	!LO:LB:g=original	!	!LO:LB:g=original	!	!	!	!	!	!	!	!	!	!	!
=9	=9	=9	=9	=9	=9	=9	=9	=9	=9	=9	=9	=9	=9	=9	=9	=9	=9	=9	=9
8E-\L	.	16gg\LL	.	16gg\LL	.	4E-\	dex-	4G/	dex-	4b-\	dex-	4ee-\	dex-	8e-\L	.	8g\L	4ee-\	4gg\	.
.	.	16bb-\	.	16bb-\	.	.	.	.	.	.	.	.	.	.	.	.	.	.	.
8E-\	.	16ee-\	.	16ee-\	.	.	.	.	.	.	.	.	.	8e-\J	.	8g\	.	.	.
.	.	16gg\JJ	.	16gg\JJ	.	.	.	.	.	.	.	.	.	.	.	.	.	.	.
8D\	.	16ff\LL	.	16ff\LL	.	4D\	-tris	4A-/	-tris	4b-\	-tris	4ff\	-tris	8B-/L	.	8f\	4ff\	4aa-\	.
.	.	16b-\	.	16b-\	.	.	.	.	.	.	.	.	.	.	.	.	.	.	.
8D\J	.	16aa-\	.	16aa-\	.	.	.	.	.	.	.	.	.	8B-/J	.	8b-\J	.	.	.
.	.	16ff\JJ	.	16ff\JJ	.	.	.	.	.	.	.	.	.	.	.	.	.	.	.
*	*	*	*	*	*	*	*	*	*	*	*	*2\right	*	*	*	*	*	*	*
!	!	!	!	!	!	!	!	!	!	!	!	!	!	!	!	!	!	!	!
8C/L	.	16gg\LL	.	16gg\LL	.	2C/	me-	4G/	tu-	4b-\	me-	2ee-\	me-	4g\	.	4b-\	2ee-\	8gg\L	.
.	.	16ee-\	.	16bb-\	.	.	.	.	.	.	.	.	.	.	.	.	.	.	.
8C/	.	16ee-\	.	16bb-\	.	.	.	.	.	.	.	.	.	.	.	.	.	8bb-\J	.
.	.	16ee-\JJ	.	16bb-\JJ	.	.	.	.	.	.	.	.	.	.	.	.	.	.	.
8C/	.	16ee-\LL	.	16aan\LL	.	.	.	4F/	.	4an\	.	.	.	4f\	.	4aX\	.	4aa\	.
.	.	16ee-\	.	16aa\	.	.	.	.	.	.	.	.	.	.	.	.	.	.	.
8C/J	.	16ee-\	.	16aa\	.	.	.	.	.	.	.	.	.	.	.	.	.	.	.
.	.	16ee-\JJ	.	16aa\JJ	.	.	.	.	.	.	.	.	.	.	.	.	.	.	.
=10	=10	=10	=10	=10	=10	=10	=10	=10	=10	=10	=10	=10	=10	=10	=10	=10	=10	=10	=10
4BB-/	.	4dd\	.	4bb-\	.	4BB-/	-is	4F/	-is	4b-\	-is.	4dd\	-is.	4B-/	.	4b-\	4dd\	4bb-\	.
!	!	!	!	!	!	!	!	!	!	!	!	!	!	!	!	!	!	!LO:N:vis=2	!
4r	.	4r	.	4r	.	4r	.	4r	.	4r	.	4r	.	4r	.	4r	4r	4r	.
!	!	!	!	!	!	!	!	!	!	!LO:TX:a:t=Nº I.:color=grey	!	!	!	!	!	!	!	!	!
2r	.	2r	.	2r	.	2r	.	2r	.	2r	.	2r	.	2r	.	2r	2r	2r	.
!	!	!LO:LB:g=original	!	!LO:LB:g=original	!	!	!	!	!	!	!	!	!	!	!	!	!LO:LB:g=original	!LO:LB:g=original	!
=11||	=11||	=11||	=11||	=11||	=11||	=11||	=11||	=11||	=11||	=11||	=11||	=11||	=11||	=11||	=11||	=11||	=11||	=11||	=11||
*	*	*clefG2	*	*clefG2	*	*	*	*clefC4	*	*	*	*	*	*clefG2	*	*clefG2	*clefG2	*clefG2	*
*	*	*k[b-e-a-]	*	*k[b-e-a-]	*	*	*	*k[b-e-a-]	*	*	*	*	*	*k[b-e-a-]	*	*k[b-e-a-]	*k[b-e-a-]	*k[b-e-a-]	*
*M4/4	*	*M4/4	*	*M4/4	*	*M4/4	*	*M4/4	*	*	*	*	*	*M4/4	*	*M4/4	*M4/4	*M4/4	*
*met(c)	*	*met(c)	*	*met(c)	*	*met(c)	*	*met(c)	*	*met(c)	*	*	*	*met(c)	*	*met(c)	*met(c)	*met(c)	*
*	*	*	*	*	*	*2\right	*	*2\right	*	*2\right	*	*	*	*	*	*	*	*	*
!	!	!	!	!	!	!	!	!	!	!	!	!	!	!	!	!	!	!	!
!LO:TX:a:t=Allo Molto	!	!LO:TX:a:t=Allo	!	!LO:TX:a:i:rj:t=Allo molto	!	!LO:TX:a:i:rj:t=allo	!	!LO:TX:a:i:t=allo	!	!LO:TX:a:i:rj:t=Allo	!	!LO:TX:a:t=Allo	!	!LO:TX:a:t=Allo molto	!	!LO:TX:a:i:t=Allo molto	!LO:TX:a:i:rj:t=Allo	!LO:TX:a:rj:t=Allo.	!
!	!	!	!LO:DY:rj:t=f.	!	!	!	!	!	!	!	!	!LO:TX:a:t=N.I:color=grey	!	!LO:TX:a:rj:t=I:color=grey	!	!LO:TX:a:rj:t=I:color=grey	!	!LO:TX:a:t=1.:color=grey	!
8E-\L	.	4gg 4b- 4e-/	f	4gg 4b- 4e-/	.	2E-\	Do-	2e-\	Do-	2g\	Do-	2b-\	Do-	4e-\	.	4g\	4b-\	4gg\	.
8E-\	.	.	.	.	.	.	.	.	.	.	.	.	.	.	.	.	.	.	.
8E-\	.	16g/LL	.	16g/LL	.	.	.	.	.	.	.	.	.	4e-\	.	4g\	4b-\	4gg\	.
.	.	(16a-/	.	16a-/	.	.	.	.	.	.	.	.	.	.	.	.	.	.	.
8E-\J	.	16b-/	.	16b-/	.	.	.	.	.	.	.	.	.	.	.	.	.	.	.
.	.	16a-/JJ)	.	16a-/JJ	.	.	.	.	.	.	.	.	.	.	.	.	.	.	.
4E-\	.	8g/	.	8g/	.	4E-\	-nec	4e-\	-nec	4g\	-nec	4b-\	-nec	4e-\	.	4g\	4b-\	4gg\	.
.	.	8r	.	8r	.	.	.	.	.	.	.	.	.	.	.	.	.	.	.
!	!	!	!	!	!LO:DY:rj	!	!	!	!	!	!	!	!	!	!	!	!	!	!
4r	.	8G/	.	8e-/	p	4r	.	4r	.	4r	.	4r	.	4r	.	4r	4r	4r	.
.	.	8r	.	8r	.	.	.	.	.	.	.	.	.	.	.	.	.	.	.
!	!	!	!	!	!	!	!	!	!	!	!	!LO:LB:g=original	!	!	!	!	!	!	!
=12	=12	=12	=12	=12	=12	=12	=12	=12	=12	=12	=12	=12	=12	=12	=12	=12	=12	=12	=12
!LO:TX:a:t=1.	!	!	!LO:DY:rj:t=p&colon;	!	!	!LO:TX:a:t=1	!	!LO:TX:a:t=1	!	!LO:TX:a:t=1.	!	!LO:TX:a:t=1.	!	!	!	!	!LO:TX:a:t=1.	!LO:TX:a:t=1.	!
1r	.	8B-/	p	8g/	.	1r	.	1r	.	1r	.	1r	.	1E-	.	1e-	1r	1r	.
.	.	8r	.	8r	.	.	.	.	.	.	.	.	.	.	.	.	.	.	.
.	.	8g/	.	8b-\	.	.	.	.	.	.	.	.	.	.	.	.	.	.	.
.	.	8r	.	8r	.	.	.	.	.	.	.	.	.	.	.	.	.	.	.
.	.	8b-\	.	8ee-\	.	.	.	.	.	.	.	.	.	.	.	.	.	.	.
.	.	8r	.	8r	.	.	.	.	.	.	.	.	.	.	.	.	.	.	.
.	.	8ee-\	.	8gg\	.	.	.	.	.	.	.	.	.	.	.	.	.	.	.
.	.	8r	.	8r	.	.	.	.	.	.	.	.	.	.	.	.	.	.	.
!	!	!	!	!	!	!	!	!	!	!LO:LB:g=original	!	!	!	!	!	!	!	!	!
=13	=13	=13	=13	=13	=13	=13	=13	=13	=13	=13	=13	=13	=13	=13	=13	=13	=13	=13	=13
*2\right	*	*	*	*	*	*	*	*	*	*	*	*	*ij	*	*	*	*	*	*
!	!	!	!LO:DY:rj:t=f.	!	!LO:DY:t=for	!	!	!	!	!	!	!	!	!	!	!	!	!	!
8E-\L	.	4cc 4e-/	f	4aa- 4cc 4e-/	f	2E-\	do-	2e-\	do-	2a-\	Do-	2cc\	Do-	4E-/	.	4e-\	4cc\	4aa-\	.
8E-\	.	.	.	.	.	.	.	.	.	.	.	.	.	.	.	.	.	.	.
8E-\	.	(16a-/LL	.	16a-/LL	.	.	.	.	.	.	.	.	.	4E-/	.	4e-\	4cc\	4aa-\	.
.	.	16b-/	.	16b-/	.	.	.	.	.	.	.	.	.	.	.	.	.	.	.
8E-\J	.	16cc/	.	16cc/	.	.	.	.	.	.	.	.	.	.	.	.	.	.	.
.	.	16b-/JJ)	.	16b-/JJ	.	.	.	.	.	.	.	.	.	.	.	.	.	.	.
4E-\	.	8a-/	.	8a-/	.	4E-\	-nec	4e-\	-nec	4a-\	-nec	4cc\	-nec	4E-/	.	4e-\	4cc\	4aa-\	.
.	.	8r	.	8r	.	.	.	.	.	.	.	.	.	.	.	.	.	.	.
!	!	!	!	!	!LO:DY:rj	!	!	!	!	!	!	!	!	!	!	!	!	!	!
4r	.	8c/	.	8e-/	p	4r	.	4r	.	4r	.	4r	.	4r	.	4r	4r	4r	.
.	.	8r	.	8r	.	.	.	.	.	.	.	.	.	.	.	.	.	.	.
!	!	!LO:LB:g=original	!	!	!	!	!	!	!	!	!	!	!	!	!	!LO:LB:g=original	!	!	!
=14	=14	=14	=14	=14	=14	=14	=14	=14	=14	=14	=14	=14	=14	=14	=14	=14	=14	=14	=14
!LO:TX:a:t=1.	!	!	!LO:DY:rj:t=p&colon;	!	!	!LO:TX:a:t=1	!	!LO:TX:a:t=1	!	!LO:TX:a:t=1.	!	!LO:TX:a:t=1.	!	!	!	!	!LO:TX:a:t=1.	!LO:TX:a:t=1.	!
1r	.	8e-/	p	8a-\	.	1r	.	1r	.	1r	.	1r	.	1E-	.	1e-	1r	1r	.
.	.	8r	.	8r	.	.	.	.	.	.	.	.	.	.	.	.	.	.	.
.	.	8a-/	.	8cc\	.	.	.	.	.	.	.	.	.	.	.	.	.	.	.
.	.	8r	.	8r	.	.	.	.	.	.	.	.	.	.	.	.	.	.	.
.	.	8cc\	.	8ee-\	.	.	.	.	.	.	.	.	.	.	.	.	.	.	.
.	.	8r	.	8r	.	.	.	.	.	.	.	.	.	.	.	.	.	.	.
!	!	!	!	!LO:LB:g=original	!	!	!	!	!	!	!	!	!	!	!	!	!	!	!
.	.	8ee-\	.	8aa-\	.	.	.	.	.	.	.	.	.	.	.	.	.	.	.
.	.	8r	.	8r	.	.	.	.	.	.	.	.	.	.	.	.	.	.	.
=15	=15	=15	=15	=15	=15	=15	=15	=15	=15	=15	=15	=15	=15	=15	=15	=15	=15	=15	=15
*	*	*	*	*	*	*	*	*	*	*	*ij	*	*	*	*	*	*	*	*
!	!	!	!LO:DY:rj:t=f&colon;	!	!LO:DY:t=for	!	!	!	!	!	!	!	!	!	!	!	!	!	!
8E-\L	.	4gg 4b- 4e-/	f	4gg 4b- 4e-/	f	2E-\	do-	2e-\	do-	2g\	Do-	2b-\	Do-	4E-/	.	4e-\	4b-\	4gg\	.
8E-\	.	.	.	.	.	.	.	.	.	.	.	.	.	.	.	.	.	.	.
8E-\	.	(16g/LL	.	16g/LL	.	.	.	.	.	.	.	.	.	4E-/	.	4e-\	4b-\	4gg\	.
.	.	16a-/	.	16a-/	.	.	.	.	.	.	.	.	.	.	.	.	.	.	.
8E-\J	.	16b-/	.	16b-/	.	.	.	.	.	.	.	.	.	.	.	.	.	.	.
.	.	16a-/JJ)	.	16a-/JJ	.	.	.	.	.	.	.	.	.	.	.	.	.	.	.
4E-\	.	8g/	.	8g/	.	4E-\	-nec	4e-\	-nec	4g\	-nec	4b-\	-nec	4E-/	.	4e-\	4b-\	4gg\	.
*	*	*	*	*	*	*	*	*	*	*	*Xij	*	*Xij	*	*	*	*	*	*
.	.	8r	.	8r	.	.	.	.	.	.	.	.	.	.	.	.	.	.	.
!	!	!	!	!	!LO:DY:rj	!	!	!	!	!	!	!	!	!	!	!	!	!	!
4r	.	8G/	.	8e-/	p	4r	.	4r	.	4r	.	4r	.	4r	.	4r	4r	4r	.
.	.	8r	.	8r	.	.	.	.	.	.	.	.	.	.	.	.	.	.	.
!	!	!	!	!	!	!	!	!	!	!	!	!	!	!LO:LB:g=original	!	!	!	!	!
=16	=16	=16	=16	=16	=16	=16	=16	=16	=16	=16	=16	=16	=16	=16	=16	=16	=16	=16	=16
!LO:TX:a:t=1.	!	!LO:SIC:v:s=8B-/	!LO:DY:rj	!	!	!LO:TX:a:t=1	!	!LO:TX:a:t=1	!	!LO:TX:a:t=1.	!	!LO:TX:a:t=1.	!	!	!	!	!LO:TX:a:t=1.	!LO:TX:a:t=1.	!
1r	.	8A-/	p	8g\	.	1r	.	1r	.	1r	.	1r	.	1E-	.	1e-	1r	1r	.
.	.	8r	.	8r	.	.	.	.	.	.	.	.	.	.	.	.	.	.	.
.	.	8g/	.	8b-\	.	.	.	.	.	.	.	.	.	.	.	.	.	.	.
.	.	8r	.	8r	.	.	.	.	.	.	.	.	.	.	.	.	.	.	.
.	.	8b-\	.	8ee-\	.	.	.	.	.	.	.	.	.	.	.	.	.	.	.
.	.	8r	.	8r	.	.	.	.	.	.	.	.	.	.	.	.	.	.	.
.	.	8ee-\	.	8gg\	.	.	.	.	.	.	.	.	.	.	.	.	.	.	.
.	.	8r	.	8r	.	.	.	.	.	.	.	.	.	.	.	.	.	.	.
=17	=17	=17	=17	=17	=17	=17	=17	=17	=17	=17	=17	=17	=17	=17	=17	=17	=17	=17	=17
!	!	!	!LO:DY:rj:t=f&colon;	!	!LO:DY:rj	!	!	!	!	!	!	!	!	!	!	!	!	!	!
8E-\L	.	16gLL 16B-/	f	8ee-\L	f	2.E-\	po-	2.e-\	do-	2.b-\	do-	2.gg\	Do-	1E-	.	1e-	1b-	1gg	.
.	.	16g 16B-/	.	.	.	.	.	.	.	.	.	.	.	.	.	.	.	.	.
8E-\	.	16g 16B-/	.	16b-\L	.	.	.	.	.	.	.	.	.	.	.	.	.	.	.
.	.	16gJJ 16B-/	.	16cc\JJ	.	.	.	.	.	.	.	.	.	.	.	.	.	.	.
*	*	*tremolo	*	*	*	*	*	*	*	*	*	*	*	*	*	*	*	*	*
8E-\	.	16g 16B-/LL	.	8b-\L	.	.	.	.	.	.	.	.	.	.	.	.	.	.	.
.	.	16g 16B-/	.	.	.	.	.	.	.	.	.	.	.	.	.	.	.	.	.
8E-\J	.	16g 16B-/	.	8g\J	.	.	.	.	.	.	.	.	.	.	.	.	.	.	.
.	.	16g 16B-/JJ	.	.	.	.	.	.	.	.	.	.	.	.	.	.	.	.	.
8E-\L	.	16g 16B-/LL	.	8b-\L	.	.	.	.	.	.	.	.	.	.	.	.	.	.	.
.	.	16g 16B-/	.	.	.	.	.	.	.	.	.	.	.	.	.	.	.	.	.
8E-\	.	16g 16B-/	.	8ee-\	.	.	.	.	.	.	.	.	.	.	.	.	.	.	.
.	.	16g 16B-/	.	.	.	.	.	.	.	.	.	.	.	.	.	.	.	.	.
8E-\	.	16g 16B-/	.	8gg\	.	4E-\	-nam	4e-\	-nec	4b-\	-nec	4gg\	-nec	.	.	.	.	.	.
.	.	16g 16B-/	.	.	.	.	.	.	.	.	.	.	.	.	.	.	.	.	.
8E-\J	.	16g 16B-/	.	8bb-\J	.	.	.	.	.	.	.	.	.	.	.	.	.	.	.
.	.	16g 16B-/JJ	.	.	.	.	.	.	.	.	.	.	.	.	.	.	.	.	.
!	!	!LO:LB:g=original	!	!	!	!LO:LB:g=original	!	!LO:LB:g=original	!	!	!	!	!	!	!	!	!	!	!
=18	=18	=18	=18	=18	=18	=18	=18	=18	=18	=18	=18	=18	=18	=18	=18	=18	=18	=18	=18
!	!	!	!	!LO:TX:t=P:problem=mixed beam	!	!	!	!	!	!	!	!	!	!LO:SIC:v:s=2c/	!	!	!	!	!
8E-\L	.	16a- 16c/LL	.	8ccc\L	.	2.E-\	i-	2.e-\	po-	2.cc\	po-	2.aa-\	po-	2G/	.	1e-	1cc	1aa-	.
.	.	16a- 16c/	.	.	.	.	.	.	.	.	.	.	.	.	.	.	.	.	.
8E-\	.	16a- 16c/	.	16cc/L	.	.	.	.	.	.	.	.	.	.	.	.	.	.	.
.	.	16a- 16c/	.	16dd/JJ	.	.	.	.	.	.	.	.	.	.	.	.	.	.	.
8E-\	.	16a- 16c/	.	8cc\L	.	.	.	.	.	.	.	.	.	.	.	.	.	.	.
.	.	16a- 16c/	.	.	.	.	.	.	.	.	.	.	.	.	.	.	.	.	.
8E-\J	.	16a- 16c/	.	8a-\J	.	.	.	.	.	.	.	.	.	.	.	.	.	.	.
.	.	16a- 16c/JJ	.	.	.	.	.	.	.	.	.	.	.	.	.	.	.	.	.
!	!	!	!	!LO:LB:g=original	!	!	!	!	!	!	!	!	!	!	!	!	!	!	!
8E-\L	.	16a- 16c/LL	.	8cc\L	.	.	.	.	.	.	.	.	.	2e-\	.	.	.	.	.
.	.	16a- 16c/	.	.	.	.	.	.	.	.	.	.	.	.	.	.	.	.	.
8E-\	.	16a- 16c/	.	8ee-\	.	.	.	.	.	.	.	.	.	.	.	.	.	.	.
.	.	16a- 16c/	.	.	.	.	.	.	.	.	.	.	.	.	.	.	.	.	.
8E-\	.	16a- 16c/	.	8aa-\	.	4E-\	-ni-	4e-\	-nam	4cc\	-nam	4aa-\	-nam	.	.	.	.	.	.
.	.	16a- 16c/	.	.	.	.	.	.	.	.	.	.	.	.	.	.	.	.	.
8E-\J	.	16a- 16c/	.	8ccc\J	.	.	.	.	.	.	.	.	.	.	.	.	.	.	.
.	.	16a- 16c/JJ	.	.	.	.	.	.	.	.	.	.	.	.	.	.	.	.	.
=19	=19	=19	=19	=19	=19	=19	=19	=19	=19	=19	=19	=19	=19	=19	=19	=19	=19	=19	=19
8E-\L	.	16g 16B-/LL	.	8bb-\L	.	2.E-\	-mi-	2.e-\	i-	2.b-\	i-	2.gg\	i-	2e-\	.	2e-\	1b-	1gg	.
.	.	16g 16B-/	.	.	.	.	.	.	.	.	.	.	.	.	.	.	.	.	.
8E-\	.	16g 16B-/	.	16b-\L	.	.	.	.	.	.	.	.	.	.	.	.	.	.	.
.	.	16g 16B-/	.	16cc\JJ	.	.	.	.	.	.	.	.	.	.	.	.	.	.	.
8E-\	.	16g 16B-/	.	8b-\L	.	.	.	.	.	.	.	.	.	.	.	.	.	.	.
.	.	16g 16B-/	.	.	.	.	.	.	.	.	.	.	.	.	.	.	.	.	.
8E-\J	.	16g 16B-/	.	8g\J	.	.	.	.	.	.	.	.	.	.	.	.	.	.	.
.	.	16g 16B-/JJ	.	.	.	.	.	.	.	.	.	.	.	.	.	.	.	.	.
8E-\L	.	16g 16B-/LL	.	8b-\L	.	.	.	.	.	.	.	.	.	2B-/	.	2g\	.	.	.
.	.	16g 16B-/	.	.	.	.	.	.	.	.	.	.	.	.	.	.	.	.	.
8E-\	.	16g 16B-/	.	8ee-\	.	.	.	.	.	.	.	.	.	.	.	.	.	.	.
.	.	16g 16B-/	.	.	.	.	.	.	.	.	.	.	.	.	.	.	.	.	.
8E-\	.	16g 16B-/	.	8gg\	.	4E-\	-cos	4e-\	-ni-	4b-\	-ni-	4gg\	-ni-	.	.	.	.	.	.
.	.	16g 16B-/	.	.	.	.	.	.	.	.	.	.	.	.	.	.	.	.	.
8E-\J	.	16g 16B-/	.	8bb-\J	.	.	.	.	.	.	.	.	.	.	.	.	.	.	.
.	.	16g 16B-/JJ	.	.	.	.	.	.	.	.	.	.	.	.	.	.	.	.	.
=20	=20	=20	=20	=20	=20	=20	=20	=20	=20	=20	=20	=20	=20	=20	=20	=20	=20	=20	=20
*	*	*	*	*	*	*	*	*	*	*	*	*	*	*	*	*	*	*	*
!	!	!	!	!	!	!	!	!	!	!	!	!	!	!LO:SIC:v:s=1g	!	!	!	!	!
8B-\L	.	16g 16B-/LL	.	8gg\L	.	4B-\	mi-	4e-\	-mi-	4b-\	-mi-	4gg\	-mi-	1G	.	2g\	2ee-\	2gg\	.
.	.	16g 16B-/	.	.	.	.	.	.	.	.	.	.	.	.	.	.	.	.	.
8B-\	.	16g 16B-/	.	8ee-\	.	.	.	.	.	.	.	.	.	.	.	.	.	.	.
.	.	16g 16B-/	.	.	.	.	.	.	.	.	.	.	.	.	.	.	.	.	.
8B-\	.	16g 16B-/	.	8bb-\	.	4B-\	-cos	4e-\	-cos	4b-\	-cos	4gg\	-cos	.	.	.	.	.	.
.	.	16g 16B-/	.	.	.	.	.	.	.	.	.	.	.	.	.	.	.	.	.
8B-\J	.	16g 16B-/	.	8gg\J	.	.	.	.	.	.	.	.	.	.	.	.	.	.	.
.	.	16g 16B-/JJ	.	.	.	.	.	.	.	.	.	.	.	.	.	.	.	.	.
8BB-/L	.	16f 16d/LL	.	8ff\L	.	2BB-/	tu-	2d\	tu-	2b-\	tu-	2ff\	tu-	.	.	2f\	2dd\	2ff\	.
.	.	16f 16d/	.	.	.	.	.	.	.	.	.	.	.	.	.	.	.	.	.
8BB-/	.	16f 16d/	.	8aa-\	.	.	.	.	.	.	.	.	.	.	.	.	.	.	.
.	.	16f 16d/	.	.	.	.	.	.	.	.	.	.	.	.	.	.	.	.	.
8BB-/	.	16f 16d/	.	8dd\	.	.	.	.	.	.	.	.	.	.	.	.	.	.	.
.	.	16f 16d/	.	.	.	.	.	.	.	.	.	.	.	.	.	.	.	.	.
8BB-/J	.	16f 16d/	.	8ff\J	.	.	.	.	.	.	.	.	.	.	.	.	.	.	.
.	.	16f 16d/JJ	.	.	.	.	.	.	.	.	.	.	.	.	.	.	.	.	.
!	!	!	!	!	!	!	!	!	!	!LO:LB:g=original	!	!LO:LB:g=original	!	!	!	!	!	!	!
=21	=21	=21	=21	=21	=21	=21	=21	=21	=21	=21	=21	=21	=21	=21	=21	=21	=21	=21	=21
8E-\L	.	16g/LL	.	16ee-\LL	.	2E-\	-os	2e-\	-os	2b-\	-os	2gg\	-os	1G	.	1e-	1ee-	1gg	.
.	.	16g/	.	16ee-\	.	.	.	.	.	.	.	.	.	.	.	.	.	.	.
8E-\	.	16g/	.	16ee-\	.	.	.	.	.	.	.	.	.	.	.	.	.	.	.
.	.	16g/JJ	.	16ee-\JJ	.	.	.	.	.	.	.	.	.	.	.	.	.	.	.
8E-\	.	16B-/LL	.	16B-/LL	.	.	.	.	.	.	.	.	.	.	.	.	.	.	.
.	.	16B-/	.	16B-/	.	.	.	.	.	.	.	.	.	.	.	.	.	.	.
8E-\J	.	16B-/	.	16B-/	.	.	.	.	.	.	.	.	.	.	.	.	.	.	.
.	.	16B-/JJ	.	16B-/JJ	.	.	.	.	.	.	.	.	.	.	.	.	.	.	.
*	*	*	*	*tremolo	*	*	*	*	*	*	*	*	*	*	*	*	*	*	*
8E-\L	.	16e-/LL	.	16e-/LL	.	2E-\	sca-	2e-\	Sca-	2b-\	Sca-	2gg\	Sca-	.	.	.	.	.	.
.	.	16e-/	.	16e-/	.	.	.	.	.	.	.	.	.	.	.	.	.	.	.
8E-\	.	16e-/	.	16e-/	.	.	.	.	.	.	.	.	.	.	.	.	.	.	.
.	.	16e-/JJ	.	16e-/JJ	.	.	.	.	.	.	.	.	.	.	.	.	.	.	.
8E-\	.	16g/LL	.	16g/LL	.	.	.	.	.	.	.	.	.	.	.	.	.	.	.
.	.	16g/	.	16g/	.	.	.	.	.	.	.	.	.	.	.	.	.	.	.
8E-\J	.	16g/	.	16g/	.	.	.	.	.	.	.	.	.	.	.	.	.	.	.
.	.	16g/JJ	.	16g/JJ	.	.	.	.	.	.	.	.	.	.	.	.	.	.	.
=22	=22	=22	=22	=22	=22	=22	=22	=22	=22	=22	=22	=22	=22	=22	=22	=22	=22	=22	=22
8E-\L	.	16b-\LL	.	16b-\LL	.	2E-\	-bel-	2e-\	-bel-	2b-\	-bel-	2gg\	-bel-	1B-	.	1e-	1ee-	1gg	.
.	.	16b-\	.	16b-\	.	.	.	.	.	.	.	.	.	.	.	.	.	.	.
8E-\	.	16b-\	.	16b-\	.	.	.	.	.	.	.	.	.	.	.	.	.	.	.
.	.	16b-\JJ	.	16b-\JJ	.	.	.	.	.	.	.	.	.	.	.	.	.	.	.
8E-\	.	16ee-\LL	.	16ee-\LL	.	.	.	.	.	.	.	.	.	.	.	.	.	.	.
.	.	16ee-\	.	16ee-\	.	.	.	.	.	.	.	.	.	.	.	.	.	.	.
8E-\J	.	16ee-\	.	16ee-\	.	.	.	.	.	.	.	.	.	.	.	.	.	.	.
.	.	16ee-\JJ	.	16ee-\JJ	.	.	.	.	.	.	.	.	.	.	.	.	.	.	.
8E-\L	.	16gg\LL	.	16gg\LL	.	2E-\	-lum	2e-\	-lum	2b-\	-lum	2gg\	-lum	.	.	.	.	.	.
.	.	16gg\	.	16gg\	.	.	.	.	.	.	.	.	.	.	.	.	.	.	.
8E-\	.	16gg\	.	16gg\	.	.	.	.	.	.	.	.	.	.	.	.	.	.	.
.	.	16gg\JJ	.	16gg\JJ	.	.	.	.	.	.	.	.	.	.	.	.	.	.	.
8E-\	.	16ee-\LL	.	16ee-\LL	.	.	.	.	.	.	.	.	.	.	.	.	.	.	.
.	.	16ee-\	.	16ee-\	.	.	.	.	.	.	.	.	.	.	.	.	.	.	.
8E-\J	.	16ee-\	.	16ee-\	.	.	.	.	.	.	.	.	.	.	.	.	.	.	.
.	.	16ee-\JJ	.	16ee-\JJ	.	.	.	.	.	.	.	.	.	.	.	.	.	.	.
!	!	!	!	!LO:LB:g=original	!	!	!	!	!	!	!	!	!	!	!	!	!	!	!
=23	=23	=23	=23	=23	=23	=23	=23	=23	=23	=23	=23	=23	=23	=23	=23	=23	=23	=23	=23
*	*	*	*	*	*	*	*ij	*	*	*	*ij	*	*ij	*	*	*	*	*	*
8D\L	.	16dd\LL	.	16dd\LL	.	1D	sca-	1d	Sca-	1b-	Sca-	1ff	Sca-	1B-	.	1f	1dd	1ff	.
.	.	16dd\	.	16dd\	.	.	.	.	.	.	.	.	.	.	.	.	.	.	.
8D\	.	16dd\	.	16dd\	.	.	.	.	.	.	.	.	.	.	.	.	.	.	.
.	.	16dd\JJ	.	16dd\JJ	.	.	.	.	.	.	.	.	.	.	.	.	.	.	.
8D\	.	16B-/LL	.	16d/LL	.	.	.	.	.	.	.	.	.	.	.	.	.	.	.
.	.	16B-/	.	16d/	.	.	.	.	.	.	.	.	.	.	.	.	.	.	.
8D\J	.	16B-/	.	16d/	.	.	.	.	.	.	.	.	.	.	.	.	.	.	.
.	.	16B-/JJ	.	16d/JJ	.	.	.	.	.	.	.	.	.	.	.	.	.	.	.
8D\L	.	16d/LL	.	16B-/LL	.	.	.	.	.	.	.	.	.	.	.	.	.	.	.
.	.	16d/	.	16B-/	.	.	.	.	.	.	.	.	.	.	.	.	.	.	.
8D\	.	16d/	.	16B-/	.	.	.	.	.	.	.	.	.	.	.	.	.	.	.
.	.	16d/JJ	.	16B-/JJ	.	.	.	.	.	.	.	.	.	.	.	.	.	.	.
8D\	.	16f/LL	.	16f/LL	.	.	.	.	.	.	.	.	.	.	.	.	.	.	.
.	.	16f/	.	16f/	.	.	.	.	.	.	.	.	.	.	.	.	.	.	.
8D\J	.	16f/	.	16f/	.	.	.	.	.	.	.	.	.	.	.	.	.	.	.
.	.	16f/JJ	.	16f/JJ	.	.	.	.	.	.	.	.	.	.	.	.	.	.	.
=24	=24	=24	=24	=24	=24	=24	=24	=24	=24	=24	=24	=24	=24	=24	=24	=24	=24	=24	=24
8BB-/L	.	16b-\LL	.	16b-\LL	.	2BB-/	-bel-	2d\	-bel-	2b-\	-bel-	2ff\	-bel-	1f	.	1f	1dd	1ff	.
.	.	16b-\	.	16b-\	.	.	.	.	.	.	.	.	.	.	.	.	.	.	.
8BB-/	.	16b-\	.	16b-\	.	.	.	.	.	.	.	.	.	.	.	.	.	.	.
.	.	16b-\JJ	.	16b-\JJ	.	.	.	.	.	.	.	.	.	.	.	.	.	.	.
8BB-/	.	16dd\LL	.	16dd\LL	.	.	.	.	.	.	.	.	.	.	.	.	.	.	.
.	.	16dd\	.	16dd\	.	.	.	.	.	.	.	.	.	.	.	.	.	.	.
8BB-/J	.	16dd\	.	16dd\	.	.	.	.	.	.	.	.	.	.	.	.	.	.	.
.	.	16dd\JJ	.	16dd\JJ	.	.	.	.	.	.	.	.	.	.	.	.	.	.	.
8B-\L	.	16ff\LL	.	16ff\LL	.	2B-\	-lum	2d\	-lum	2b-\	-lum	2ff\	-lum	.	.	.	.	.	.
*	*	*	*	*	*	*	*	*	*	*	*Xij	*	*	*	*	*	*	*	*
.	.	16ff\	.	16ff\	.	.	.	.	.	.	.	.	.	.	.	.	.	.	.
8B-\	.	16ff\	.	16ff\	.	.	.	.	.	.	.	.	.	.	.	.	.	.	.
.	.	16ff\JJ	.	16ff\JJ	.	.	.	.	.	.	.	.	.	.	.	.	.	.	.
8B-\	.	16dd\LL	.	16dd\LL	.	.	.	.	.	.	.	.	.	.	.	.	.	.	.
.	.	16dd\	.	16dd\	.	.	.	.	.	.	.	.	.	.	.	.	.	.	.
8B-\J	.	16dd\	.	16dd\	.	.	.	.	.	.	.	.	.	.	.	.	.	.	.
.	.	16dd\JJ	.	16dd\JJ	.	.	.	.	.	.	.	.	.	.	.	.	.	.	.
!	!	!LO:LB:g=original	!	!	!	!	!	!	!	!	!	!	!	!	!	!	!	!	!
=25	=25	=25	=25	=25	=25	=25	=25	=25	=25	=25	=25	=25	=25	=25	=25	=25	=25	=25	=25
*	*	*	*	*	*	*	*	*	*ij	*	*	*	*	*	*	*	*	*	*
8An\L	.	16cc\LL	.	16cc\LL	.	1An	sca-	1f	Sca-	1cc	Sca-	1ee-	Sca-	1f	.	1f	1cc	1ee-	.
.	.	16cc\	.	16cc\	.	.	.	.	.	.	.	.	.	.	.	.	.	.	.
8An\	.	16cc\	.	16cc\	.	.	.	.	.	.	.	.	.	.	.	.	.	.	.
.	.	16cc\JJ	.	16cc\JJ	.	.	.	.	.	.	.	.	.	.	.	.	.	.	.
8An\	.	16c/LL	.	16c/LL	.	.	.	.	.	.	.	.	.	.	.	.	.	.	.
.	.	16c/	.	16c/	.	.	.	.	.	.	.	.	.	.	.	.	.	.	.
8An\J	.	16c/	.	16c/	.	.	.	.	.	.	.	.	.	.	.	.	.	.	.
.	.	16c/JJ	.	16c/JJ	.	.	.	.	.	.	.	.	.	.	.	.	.	.	.
8A\L	.	16f/LL	.	16f/LL	.	.	.	.	.	.	.	.	.	.	.	.	.	.	.
.	.	16f/	.	16f/	.	.	.	.	.	.	.	.	.	.	.	.	.	.	.
8A\	.	16f/	.	16f/	.	.	.	.	.	.	.	.	.	.	.	.	.	.	.
.	.	16f/JJ	.	16f/JJ	.	.	.	.	.	.	.	.	.	.	.	.	.	.	.
8A\	.	16an/LL	.	16an/LL	.	.	.	.	.	.	.	.	.	.	.	.	.	.	.
.	.	16an/	.	16an/	.	.	.	.	.	.	.	.	.	.	.	.	.	.	.
8A\J	.	16an/	.	16an/	.	.	.	.	.	.	.	.	.	.	.	.	.	.	.
.	.	16an/JJ	.	16an/JJ	.	.	.	.	.	.	.	.	.	.	.	.	.	.	.
=26	=26	=26	=26	=26	=26	=26	=26	=26	=26	=26	=26	=26	=26	=26	=26	=26	=26	=26	=26
!	!	!	!	!	!	!	!	!	!	!	!	!	!	!LO:TX:t=P:problem=brak taktu	!	!	!	!	!
8F\L	.	16cc\LL	.	16cc\LL	.	2F\	-bel-	2An\	-bel-	2cc\	-bel-	2ee-\	-bel-	1ryy	.	1f	1cc	1ee-	.
.	.	16cc\	.	16cc\	.	.	.	.	.	.	.	.	.	.	.	.	.	.	.
8F\	.	16cc\	.	16cc\	.	.	.	.	.	.	.	.	.	.	.	.	.	.	.
.	.	16cc\JJ	.	16cc\JJ	.	.	.	.	.	.	.	.	.	.	.	.	.	.	.
8F\	.	16an\LL	.	16an\LL	.	.	.	.	.	.	.	.	.	.	.	.	.	.	.
.	.	16an\	.	16an\	.	.	.	.	.	.	.	.	.	.	.	.	.	.	.
8F\J	.	16an\	.	16an\	.	.	.	.	.	.	.	.	.	.	.	.	.	.	.
.	.	16an\JJ	.	16an\JJ	.	.	.	.	.	.	.	.	.	.	.	.	.	.	.
8F\L	.	16cc\LL	.	16ee-\LL	.	2F\	-lum	2A\	-lum	2cc\	-lum	2ee-\	-lum	.	.	.	.	.	.
*	*	*	*	*	*	*	*Xij	*	*Xij	*	*	*	*Xij	*	*	*	*	*	*
.	.	16cc\	.	16ee-\	.	.	.	.	.	.	.	.	.	.	.	.	.	.	.
8F\	.	16cc\	.	16ee-\	.	.	.	.	.	.	.	.	.	.	.	.	.	.	.
.	.	16cc\JJ	.	16ee-\JJ	.	.	.	.	.	.	.	.	.	.	.	.	.	.	.
8F\	.	16a\LL	.	16cc\LL	.	.	.	.	.	.	.	.	.	.	.	.	.	.	.
.	.	16a\	.	16cc\	.	.	.	.	.	.	.	.	.	.	.	.	.	.	.
8F\J	.	16a\	.	16cc\	.	.	.	.	.	.	.	.	.	.	.	.	.	.	.
.	.	16a\JJ	.	16cc\JJ	.	.	.	.	.	.	.	.	.	.	.	.	.	.	.
*	*	*Xtremolo	*	*Xtremolo	*	*	*	*	*	*	*	*	*	*	*	*	*	*	*
=27	=27	=27	=27	=27	=27	=27	=27	=27	=27	=27	=27	=27	=27	=27	=27	=27	=27	=27	=27
8BB-/L	.	16d/LL	.	(8cc\L	.	2B-\	pe-	2B-\	pe-	2f\	pe-	2dd\	pe-	8B-/L	.	4f\	1b-	1dd	.
.	.	16f/	.	.	.	.	.	.	.	.	.	.	.	.	.	.	.	.	.
8BB-/	.	16d/	.	8b-\J)	.	.	.	.	.	.	.	.	.	8B-/	.	.	.	.	.
.	.	16f/JJ	.	.	.	.	.	.	.	.	.	.	.	.	.	.	.	.	.
8BB-/	.	16d/LL	.	4.b-\	.	.	.	.	.	.	.	.	.	8B-/	.	8f\L	.	.	.
.	.	16f/	.	.	.	.	.	.	.	.	.	.	.	.	.	.	.	.	.
8BB-/J	.	16d/	.	.	.	.	.	.	.	.	.	.	.	8B-/J	.	8f\J	.	.	.
.	.	16f/JJ	.	.	.	.	.	.	.	.	.	.	.	.	.	.	.	.	.
*	*	*tremolo	*	*	*	*	*	*	*	*	*	*	*	*	*	*	*	*	*
8BB-/L	.	16d/LL	.	.	.	4B-\	-dum	4B-\	-dum	4f\	-dum	4dd\	-dum	4B-/	.	4f\	.	.	.
.	.	16f/	.	.	.	.	.	.	.	.	.	.	.	.	.	.	.	.	.
8BB-/	.	16d/	.	8dd\L	.	.	.	.	.	.	.	.	.	.	.	.	.	.	.
.	.	16f/	.	.	.	.	.	.	.	.	.	.	.	.	.	.	.	.	.
!	!	!	!	!	!	!	!	!	!	!	!	!LO:SIC:v:l:s=tu-	!	!	!	!	!	!	!
8BB-/	.	16d/	.	8ff\	.	4B-\	tu-	4B-\	tu-	4f\	tu-	4dd\	lu-	4r	.	4r	.	.	.
.	.	16f/	.	.	.	.	.	.	.	.	.	.	.	.	.	.	.	.	.
8BB-/J	.	16d/	.	8dd\J	.	.	.	.	.	.	.	.	.	.	.	.	.	.	.
.	.	16f/JJ	.	.	.	.	.	.	.	.	.	.	.	.	.	.	.	.	.
!	!	!	!	!	!	!LO:LB:g=original	!	!LO:LB:g=original	!	!	!	!	!	!	!	!LO:LB:g=original	!LO:LB:g=original	!	!
=28	=28	=28	=28	=28	=28	=28	=28	=28	=28	=28	=28	=28	=28	=28	=28	=28	=28	=28	=28
8F\L	.	16c/LL	.	8dd\L	.	2F\	-o-	2An\	-o-	2f\	-o-	2cc\	-o-	4f\	.	4f\	1cc	1ee-	.
.	.	16e-/	.	.	.	.	.	.	.	.	.	.	.	.	.	.	.	.	.
8F\	.	16c/	.	8cc\J	.	.	.	.	.	.	.	.	.	.	.	.	.	.	.
.	.	16e-/	.	.	.	.	.	.	.	.	.	.	.	.	.	.	.	.	.
8F\	.	16c/	.	4.cc\	.	.	.	.	.	.	.	.	.	8f\L	.	8f\L	.	.	.
.	.	16e-/	.	.	.	.	.	.	.	.	.	.	.	.	.	.	.	.	.
8F\J	.	16c/	.	.	.	.	.	.	.	.	.	.	.	8f\J	.	8f\J	.	.	.
.	.	16e-/JJ	.	.	.	.	.	.	.	.	.	.	.	.	.	.	.	.	.
8F\L	.	16c/LL	.	.	.	2F\	-rum	2A\	-rum	2f\	-rum	2cc\	-rum	4f\	.	4f\	.	.	.
.	.	16e-/	.	.	.	.	.	.	.	.	.	.	.	.	.	.	.	.	.
8F\	.	16c/	.	8ee-\L	.	.	.	.	.	.	.	.	.	.	.	.	.	.	.
.	.	16e-/	.	.	.	.	.	.	.	.	.	.	.	.	.	.	.	.	.
8F\	.	16c/	.	8an\	.	.	.	.	.	.	.	.	.	4r	.	4r	.	.	.
.	.	16e-/	.	.	.	.	.	.	.	.	.	.	.	.	.	.	.	.	.
8F\J	.	16c/	.	8cc\J	.	.	.	.	.	.	.	.	.	.	.	.	.	.	.
.	.	16e-/JJ	.	.	.	.	.	.	.	.	.	.	.	.	.	.	.	.	.
!	!	!	!	!LO:LB:g=original	!	!	!	!	!	!LO:LB:g=original	!	!LO:LB:g=original	!	!	!	!	!	!	!
=29	=29	=29	=29	=29	=29	=29	=29	=29	=29	=29	=29	=29	=29	=29	=29	=29	=29	=29	=29
8BB-/L	.	16d/LL	.	8cc\L	.	2B-\	sca-	2B-\	Sca-	2f\	Sca-	2ee-\	Sca-	4B-/	.	4f\	1b-	1dd	.
.	.	16f/	.	.	.	.	.	.	.	.	.	.	.	.	.	.	.	.	.
8BB-/	.	16d/	.	8b-\J	.	.	.	.	.	.	.	.	.	.	.	.	.	.	.
.	.	16f/	.	.	.	.	.	.	.	.	.	.	.	.	.	.	.	.	.
8BB-/	.	16d/	.	4.b-\	.	.	.	.	.	.	.	.	.	8B-/L	.	8f\L	.	.	.
.	.	16f/	.	.	.	.	.	.	.	.	.	.	.	.	.	.	.	.	.
8BB-/J	.	16d/	.	.	.	.	.	.	.	.	.	.	.	8B-/J	.	8f\J	.	.	.
.	.	16f/JJ	.	.	.	.	.	.	.	.	.	.	.	.	.	.	.	.	.
8BB-/L	.	16d/LL	.	.	.	4B-\	-bel-	4B-\	-bel-	4f\	-bel-	4dd\	-bel-	4B-/	.	4f\	.	.	.
.	.	16f/	.	.	.	.	.	.	.	.	.	.	.	.	.	.	.	.	.
8BB-/	.	16d/	.	8dd\L	.	.	.	.	.	.	.	.	.	.	.	.	.	.	.
.	.	16f/	.	.	.	.	.	.	.	.	.	.	.	.	.	.	.	.	.
8BB-/	.	16d/	.	8ff\	.	4B-\	-lum	4B-\	-lum	4f\	-lum	4dd\	-lum	4r	.	4r	.	.	.
.	.	16f/	.	.	.	.	.	.	.	.	.	.	.	.	.	.	.	.	.
8BB-/J	.	16d/	.	8dd\J	.	.	.	.	.	.	.	.	.	.	.	.	.	.	.
.	.	16f/JJ	.	.	.	.	.	.	.	.	.	.	.	.	.	.	.	.	.
!	!	!	!	!	!	!	!	!	!	!	!	!	!	!LO:LB:g=original	!	!	!	!	!
=30	=30	=30	=30	=30	=30	=30	=30	=30	=30	=30	=30	=30	=30	=30	=30	=30	=30	=30	=30
!	!	!	!	!	!	!	!	!	!	!	!	!	!	!	!	!	!	!	!LO:DY:a
8F\L	.	16c/LL	.	8dd\L	.	1F	pe-	1An	pe-	1f	pe-	1cc	pe-	4f\	.	4f\	1cc	1ee-	f
.	.	16e-/	.	.	.	.	.	.	.	.	.	.	.	.	.	.	.	.	.
8F\	.	16c/	.	8cc\J	.	.	.	.	.	.	.	.	.	.	.	.	.	.	.
.	.	16e-/	.	.	.	.	.	.	.	.	.	.	.	.	.	.	.	.	.
8F\	.	16c/	.	4.cc\	.	.	.	.	.	.	.	.	.	8f\L	.	8f\L	.	.	.
.	.	16e-/	.	.	.	.	.	.	.	.	.	.	.	.	.	.	.	.	.
8F\J	.	16c/	.	.	.	.	.	.	.	.	.	.	.	8f\J	.	8f\J	.	.	.
.	.	16e-/JJ	.	.	.	.	.	.	.	.	.	.	.	.	.	.	.	.	.
8F\L	.	8c/L	.	.	.	.	.	.	.	.	.	.	.	4f\	.	4f\	.	.	.
8F\	.	8e-/	.	8ee-\L	.	.	.	.	.	.	.	.	.	.	.	.	.	.	.
!	!	!	!	!LO:SIC:v:s=8an\	!	!	!	!	!	!	!	!	!	!	!	!	!	!	!
8F\	.	8c/	.	8a-\	.	.	.	.	.	.	.	.	.	4r	.	4r	.	.	.
8F\J	.	8e-/J	.	8cc\J	.	.	.	.	.	.	.	.	.	.	.	.	.	.	.
!	!	!LO:LB:g=original	!	!	!	!	!	!	!	!	!	!	!	!	!	!	!	!LO:LB:g=original	!
=31	=31	=31	=31	=31	=31	=31	=31	=31	=31	=31	=31	=31	=31	=31	=31	=31	=31	=31	=31
*	*	*	*	*tremolo	*	*	*	*	*	*	*	*	*	*	*	*	*	*	*
!LO:TX:b:i:t=uniſono	!	!	!	!	!	!	!	!	!	!	!	!	!	!	!	!	!	!	!
8BB-'/L	.	16B-/LL	.	16b-\LL	.	4BB-/	-dum	4B-\	-dum	4B-/	-dum	4b-\	-dum	4B-/	.	4b-\	4b-\	2dd\	.
.	.	16B-/	.	16b-\	.	.	.	.	.	.	.	.	.	.	.	.	.	.	.
8BB-'/	.	16B-/	.	16b-\	.	.	.	.	.	.	.	.	.	.	.	.	.	.	.
.	.	16B-/JJ	.	16b-\JJ	.	.	.	.	.	.	.	.	.	.	.	.	.	.	.
8D'/	.	16d/LL	.	16dd\LL	.	4D\	sca-	4d\	tu-	4d\	tu-	4dd\	Sca-	4r	.	4r	4dd\	.	.
.	.	16d/	.	16dd\	.	.	.	.	.	.	.	.	.	.	.	.	.	.	.
8D'/J	.	16d/	.	16dd\	.	.	.	.	.	.	.	.	.	.	.	.	.	.	.
.	.	16d/JJ	.	16dd\JJ	.	.	.	.	.	.	.	.	.	.	.	.	.	.	.
8F'\L	.	16f/LL	.	16ff\LL	.	4F\	-bel-	4f\	-o-	4f\	-o-	4ff\	-bel-	4f\	.	4f\	4ff\	4ff\	.
.	.	16f/	.	16ff\	.	.	.	.	.	.	.	.	.	.	.	.	.	.	.
8F'\	.	16f/	.	16ff\	.	.	.	.	.	.	.	.	.	.	.	.	.	.	.
.	.	16f/JJ	.	16ff\JJ	.	.	.	.	.	.	.	.	.	.	.	.	.	.	.
8B-'\	.	16b-\LL	.	16bb-\LL	.	4B-\	-lum	4b-\	-rum	4b-\	-rum	4bb-\	.	4B-/	.	4b-\	4bb-\	4bb-\	.
.	.	16b-\	.	16bb-\	.	.	.	.	.	.	.	.	.	.	.	.	.	.	.
8B-'\J	.	16b-\	.	16bb-\	.	.	.	.	.	.	.	.	.	.	.	.	.	.	.
.	.	16b-\JJ	.	16bb-\JJ	.	.	.	.	.	.	.	.	.	.	.	.	.	.	.
=32	=32	=32	=32	=32	=32	=32	=32	=32	=32	=32	=32	=32	=32	=32	=32	=32	=32	=32	=32
8F'\L	.	16f/LL	.	16ff\LL	.	(4F\	pe-	(4f\	pe-	(4f\	pe-	4ff\	-lum	4f\	.	4f\	4ff\	4ff\	.
.	.	16f/	.	16ff\	.	.	.	.	.	.	.	.	.	.	.	.	.	.	.
8F'\	.	16f/	.	16ff\	.	.	.	.	.	.	.	.	.	.	.	.	.	.	.
.	.	16f/JJ	.	16ff\JJ	.	.	.	.	.	.	.	.	.	.	.	.	.	.	.
!	!	!	!	!	!	!	!	!	!	!	!	!	!	!	!	!	!	!	!
8D'\	.	16d/LL	.	16dd\LL	.	4D\)	.	4d\)	.	4d\	.	4dd\	.	4r	.	4r	4dd\	4dd\	.
.	.	16d/	.	16dd\	.	.	.	.	.	.	.	.	.	.	.	.	.	.	.
8D'\J	.	16d/	.	16dd\	.	.	.	.	.	.	.	.	.	.	.	.	.	.	.
.	.	16d/JJ	.	16dd\JJ	.	.	.	.	.	.	.	.	.	.	.	.	.	.	.
8F'\L	.	16f/LL	.	16ff\LL	.	(4F\	.	(4f\	.	4f\)	.	4ff\	.	4f\	.	4f\	4ff\	4ff\	.
.	.	16f/	.	16ff\	.	.	.	.	.	.	.	.	.	.	.	.	.	.	.
8F'\	.	16f/	.	16ff\	.	.	.	.	.	.	.	.	.	.	.	.	.	.	.
.	.	16f/JJ	.	16ff\JJ	.	.	.	.	.	.	.	.	.	.	.	.	.	.	.
!	!	!	!	!	!	!	!	!	!	!	!	!	!	!	!	!	!	!	!
8D'\	.	16d/LL	.	16dd\LL	.	4D\)	.	4d\)	.	4d\	.	4dd\	pe-	4r	.	4r	4dd\	4dd\	.
.	.	16d/	.	16dd\	.	.	.	.	.	.	.	.	.	.	.	.	.	.	.
8D'\J	.	16d/	.	16dd\	.	.	.	.	.	.	.	.	.	.	.	.	.	.	.
.	.	16d/JJ	.	16dd\JJ	.	.	.	.	.	.	.	.	.	.	.	.	.	.	.
=33	=33	=33	=33	=33	=33	=33	=33	=33	=33	=33	=33	=33	=33	=33	=33	=33	=33	=33	=33
8BB-'\L	.	16b-\LL	.	16b-/LL	.	4BB-/	-dum	4B-\	.	4B-/	-dum	4b-\	-dum	4B-/	.	4B-/	4b-\	4b-\	.
.	.	16b-\	.	16b-/	.	.	.	.	.	.	.	.	.	.	.	.	.	.	.
8BB-'\	.	16b-\	.	16b-/	.	.	.	.	.	.	.	.	.	.	.	.	.	.	.
.	.	16b-\JJ	.	16b-/JJ	.	.	.	.	.	.	.	.	.	.	.	.	.	.	.
8F'\	.	16f/LL	.	16f/LL	.	(4F\	tu-	4f\	-dum	(4f\	tu-	4ff\	.	4f\	.	4f\	4f/	4ff\	.
.	.	16f/	.	16f/	.	.	.	.	.	.	.	.	.	.	.	.	.	.	.
8F'\J	.	16f/	.	16f/	.	.	.	.	.	.	.	.	.	.	.	.	.	.	.
.	.	16f/JJ	.	16f/JJ	.	.	.	.	.	.	.	.	.	.	.	.	.	.	.
!	!	!	!	!	!	!	!	!	!	!	!	!	!	!	!	!	!	!	!
8D'/L	.	16d/LL	.	16d/LL	.	4D\)	.	4d\	tu-	4d\)	.	4dd\	tu-	4r	.	4r	4d/	4dd\	.
.	.	16d/	.	16d/	.	.	.	.	.	.	.	.	.	.	.	.	.	.	.
8D'/	.	16d/	.	16d/	.	.	.	.	.	.	.	.	.	.	.	.	.	.	.
.	.	16d/JJ	.	16d/JJ	.	.	.	.	.	.	.	.	.	.	.	.	.	.	.
!	!	!	!	!	!	!	!	!	!	!	!	!	!	!	!	!	!	!	!
8BB-'/	.	16B-/LL	.	16B-/LL	.	4BB-/	-o-	4B-\	-o-	4B-/	-o-	4b-\	-o-	4B-/	.	4B-/	4b-\	4b-\	.
.	.	16B-/	.	16B-/	.	.	.	.	.	.	.	.	.	.	.	.	.	.	.
8BB-'/J	.	16B-/	.	16B-/	.	.	.	.	.	.	.	.	.	.	.	.	.	.	.
.	.	16B-/JJ	.	16B-/JJ	.	.	.	.	.	.	.	.	.	.	.	.	.	.	.
*	*	*Xtremolo	*	*Xtremolo	*	*	*	*	*	*	*	*	*	*	*	*	*	*	*
=34	=34	=34	=34	=34	=34	=34	=34	=34	=34	=34	=34	=34	=34	=34	=34	=34	=34	=34	=34
!	!	!	!	!LO:TX:t=P:problem=mixed beam	!	!	!	!	!	!	!	!	!	!	!	!	!	!	!
4FF/	.	4f/	.	8f/L	.	4F\	-rum	4F/	-rum	4f\	-rum	4f/	-rum	4f\	.	4f\	4f/	4f/	.
.	.	.	.	8ff\	.	.	.	.	.	.	.	.	.	.	.	.	.	.	.
4r	.	(8en/L	.	8een\	.	4r	.	4r	.	4r	.	4r	.	4r	.	4r	4r	4r	.
.	.	8f/J)	.	8ff\J	.	.	.	.	.	.	.	.	.	.	.	.	.	.	.
!	!	!	!	!LO:LB:g=original	!	!	!	!	!	!LO:TX:a:i:t=Solo	!	!	!	!	!	!	!	!LO:TX:a:t=Solo.	!
2r	.	(8e/L	.	8ee\L	.	2r	.	2r	.	2r	.	2r	.	2r	.	2r	2r	2r	.
.	.	8f/)	.	8ff\	.	.	.	.	.	.	.	.	.	.	.	.	.	.	.
.	.	(8e/	.	8ee\	.	.	.	.	.	.	.	.	.	.	.	.	.	.	.
.	.	8f/J)	.	8ff\J	.	.	.	.	.	.	.	.	.	.	.	.	.	.	.
!	!	!	!	!	!	!	!	!	!	!	!	!LO:LB:g=original	!	!	!	!LO:LB:g=original	!	!	!
=35	=35	=35	=35	=35	=35	=35	=35	=35	=35	=35	=35	=35	=35	=35	=35	=35	=35	=35	=35
!LO:TX:a:t=6.	!	!	!LO:DY:rj	!	!	!LO:TX:a:t=21	!	!LO:TX:a:t=21	!	!	!	!LO:TX:a:rj:t=Solo	!	!LO:TX:a:t=17.	!	!LO:TX:a:t=17	!LO:TX:a:i:t=Solo	!	!
1r	.	4r	p	4r	p	1r	.	00r	.	2dd\	Vir-	2ff\	Vir-	00r	.	1r	2dd\	2ff\	.
.	.	4B-/	.	4d/	.	.	.	.	.	.	.	.	.	.	.	.	.	.	.
.	.	4B-/	.	4d/	.	.	.	.	.	8ee-\L	-gam	8gg\L	-gam	.	.	.	(8ee-\L	(8gg\L	.
.	.	.	.	.	.	.	.	.	.	8dd\J	.	8ff\J	.	.	.	.	8dd\	8ff\	.
.	.	4B-/	.	4d/	.	.	.	.	.	8cc\L	vir-	8ee-\L	vir-	.	.	.	8cc\)	8ee-\	.
.	.	.	.	.	.	.	.	.	.	8b-\J	.	8dd\J	.	.	.	.	8b-\J	8dd\J)	.
!	!	!	!	!	!	!	!	!	!	!LO:LB:g=original	!	!	!	!	!	!	!	!	!
=36	=36	=36	=36	=36	=36	=36	=36	=36	=36	=36	=36	=36	=36	=36	=36	=36	=36	=36	=36
!	!	!	!	!	!	!	!	!	!	!	!	!LO:SIC:v:l:s=-tu-	!	!	!	!	!	!	!
1r	.	4r	.	4r	.	1r	.	.	.	2.an\	-tu-	2.cc\	-lu-	.	.	1r	2.a\	2.cc\	.
.	.	4An/	.	4c/	.	.	.	.	.	.	.	.	.	.	.	.	.	.	.
.	.	4A/	.	4c/	.	.	.	.	.	.	.	.	.	.	.	.	.	.	.
.	.	4A/	.	4c/	.	.	.	.	.	8b-\L	.	8dd\L	.	.	.	.	(8b-\L	8dd\L	.
.	.	.	.	.	.	.	.	.	.	8cc\J	.	8ee-\J	.	.	.	.	8cc\J)	8ee-\J	.
=37	=37	=37	=37	=37	=37	=37	=37	=37	=37	=37	=37	=37	=37	=37	=37	=37	=37	=37	=37
1r	.	4r	.	4r	.	1r	.	.	.	4b-\	-tis	4dd\	-tis	.	.	1r	4b-\	4dd\	.
.	.	4B-/	.	4d/	.	.	.	.	.	8dd\L	vir-	8ff\L	tu-	.	.	.	8dd\L	8ff\L	.
.	.	.	.	.	.	.	.	.	.	8b-\J	.	8dd\J	.	.	.	.	8b-\J	8dd\J	.
.	.	4B-/	.	4d/	.	.	.	.	.	(8ee-\L	-gam	8gg\L	.	.	.	.	(8ee-\L	8gg\L	.
.	.	.	.	.	.	.	.	.	.	8dd\J)	.	8ff\J	.	.	.	.	8dd\)	8ff\	.
.	.	4B-/	.	4d/	.	.	.	.	.	(8cc\L	vir-	8ee-\L	.	.	.	.	(8cc\	8ee-\	.
.	.	.	.	.	.	.	.	.	.	8b-\J)	.	8dd\J	-tis	.	.	.	8b-\J)	8dd\J	.
!	!	!LO:LB:g=original	!	!	!	!	!	!	!	!	!	!	!	!	!	!	!	!	!
=38	=38	=38	=38	=38	=38	=38	=38	=38	=38	=38	=38	=38	=38	=38	=38	=38	=38	=38	=38
1r	.	4r	.	4r	.	1r	.	.	.	2.an\	-tu-	2.cc\	tu-	.	.	1r	2.a\	2.cc\	.
!	!	!LO:SIC:v:s=4An/	!	!	!	!	!	!	!	!	!	!	!	!	!	!	!	!	!
.	.	4A-/	.	4c/	.	.	.	.	.	.	.	.	.	.	.	.	.	.	.
!	!	!LO:SIC:v:s=4An/	!	!	!	!	!	!	!	!	!	!	!	!	!	!	!	!	!
.	.	4A-/	.	4c/	.	.	.	.	.	.	.	.	.	.	.	.	.	.	.
!	!	!LO:SIC:v:s=4An/	!	!	!	!	!	!	!	!	!	!	!	!	!	!	!	!	!
.	.	4A-/	.	4c/	.	.	.	.	.	8b-\L	.	8dd\L	.	.	.	.	(8b-\L	8dd\L	.
.	.	.	.	.	.	.	.	.	.	8cc\J	.	8ee-\J	.	.	.	.	8cc\J)	8ee-\J	.
!	!	!	!	!	!	!	!	!	!	!	!	!	!	!	!	!	!LO:LB:g=original	!	!
=39	=39	=39	=39	=39	=39	=39	=39	=39	=39	=39	=39	=39	=39	=39	=39	=39	=39	=39	=39
!	!	!	!	!	!	!	!	!	!	!	!	!LO:SIC:v:l:s=-ae	!	!	!	!	!	!	!
1r	.	4r	.	4r	.	1r	.	00r	.	4b-\	-tis	4dd\	-e	00r	.	1r	4b-'\	4dd\	.
!	!	!	!	!	!	!	!	!	!	!	!	!	!	!	!	!	!	!	!
.	.	4B-/	.	4d/	.	.	.	.	.	4dd\	e-	4ff\	e-	.	.	.	4dd\|	4ff'\	.
!	!	!	!	!	!	!	!	!	!	!	!	!	!	!	!	!	!	!	!
.	.	4B-/	.	4d/	.	.	.	.	.	4dd\	-mit-	4ff\	-mit-	.	.	.	4dd\|	4ff'\	.
!	!	!	!	!	!	!	!	!	!	!	!	!LO:SIC:v:l:s=-tet	!	!	!	!	!	!	!
.	.	4B-/	.	4d/	.	.	.	.	.	4dd\	-tet	4ff\	-tem	.	.	.	4dd\|	4ff'\	.
!	!	!	!	!	!	!	!	!	!	!	!	!LO:LB:g=original	!	!	!	!	!	!	!
=40	=40	=40	=40	=40	=40	=40	=40	=40	=40	=40	=40	=40	=40	=40	=40	=40	=40	=40	=40
1r	.	4f/	.	4f/	.	1r	.	.	.	4.dd\	Do-	4.ff\	do-	.	.	1r	4.dd\	4.ff\	.
.	.	4f/	.	4f/	.	.	.	.	.	.	.	.	.	.	.	.	.	.	.
.	.	.	.	.	.	.	.	.	.	8cc\	-mi-	8ee-\	-mi-	.	.	.	8cc\	8ee-\	.
.	.	4B-/	.	4d/	.	.	.	.	.	4b-\	-nus	4dd\	-nus	.	.	.	4b-\	4dd\	.
!	!	!	!	!LO:SIC:v:t=custos cc	!	!	!	!	!	!	!	!	!	!	!	!	!	!	!
.	.	4B-/	.	4d/	.	.	.	.	.	4dd\	ex	4ff\	ex	.	.	.	4dd\	4ff\	.
!	!	!	!	!LO:LB:g=original	!	!	!	!	!	!LO:LB:g=original	!	!	!	!	!	!	!	!	!
=41	=41	=41	=41	=41	=41	=41	=41	=41	=41	=41	=41	=41	=41	=41	=41	=41	=41	=41	=41
4r	p	4e-/	.	4e-/	.	1r	.	.	.	8dd\L	Si-	8ff\L	Si-	.	.	1r	8dd\L	8ff\L	.
.	.	.	.	.	.	.	.	.	.	8cc\J	.	8ee-\J	.	.	.	.	8cc\J	8ee-\J	.
4E-\	.	4e-/	.	4g/	.	.	.	.	.	2b-\	.	2dd\	.	.	.	.	2b-\	2dd\	.
4F\	.	4d/	.	4f/	.	.	.	.	.	.	.	.	.	.	.	.	.	.	.
4FF/	.	4c/	.	4f/	.	.	.	.	.	4an\	.	4cc\	.	.	.	.	4a\	4cc\	.
=42	=42	=42	=42	=42	=42	=42	=42	=42	=42	=42	=42	=42	=42	=42	=42	=42	=42	=42	=42
4BB-'/	.	4d/	.	4f/	f	1r	.	.	.	4b-\	-on,	4dd\	-on	.	.	1r	4b-\	4b-\	.
!	!	!	!LO:DY:rj:t=f.	!	!	!	!	!	!	!	!	!	!	!	!	!	!	!	!
8B-'\L	f	8b-'\L	f	8b-\L|	.	.	.	.	.	4r	.	4r	.	.	.	.	4r	4r	.
!	!	!	!	!	!	!	!	!	!	!	!	!	!	!	!	!	!	!	!
8An'\J	.	8an'\J	.	8an\J|	.	.	.	.	.	.	.	.	.	.	.	.	.	.	.
!	!	!	!	!	!	!	!	!	!	!	!	!	!	!	!	!	!	!	!
8B-'\L	.	8b-'\L	.	8b-\L|	.	.	.	.	.	2r	.	2r	.	.	.	.	2r	2r	.
!	!	!	!	!	!	!	!	!	!	!	!	!	!	!	!	!	!	!	!
8c'\	.	8cc'\	.	8cc\|	.	.	.	.	.	.	.	.	.	.	.	.	.	.	.
!	!	!	!	!	!	!	!	!	!	!	!	!	!	!	!	!	!	!	!
8d-X'\	.	8dd-X'\	.	8dd-X\|	.	.	.	.	.	.	.	.	.	.	.	.	.	.	.
!	!	!	!	!	!	!	!	!	!	!	!	!	!	!	!	!	!	!	!
8c'\J	.	8cc'\J	.	8cc\J|	.	.	.	.	.	.	.	.	.	.	.	.	.	.	.
=43	=43	=43	=43	=43	=43	=43	=43	=43	=43	=43	=43	=43	=43	=43	=43	=43	=43	=43	=43
!	!	!	!	!	!	!	!	!	!	!LO:TX:a:t=1.	!	!LO:TX:a:t=1.	!	!	!	!	!LO:TX:a:t=1.	!LO:TX:a:t=1.	!
8B-'\L	.	8b-'/L	.	8b-/L	.	1r	.	00r	.	1r	.	1r	.	00r	.	1r	1r	1r	.
8A-X'\	.	8a-X'/	.	8a-X/	.	.	.	.	.	.	.	.	.	.	.	.	.	.	.
8G'\	.	8g'/	.	8g/	.	.	.	.	.	.	.	.	.	.	.	.	.	.	.
8F'\J	.	8f'/J	.	8f/J	.	.	.	.	.	.	.	.	.	.	.	.	.	.	.
8En'\L	.	8en/L	.	8en/L	.	.	.	.	.	.	.	.	.	.	.	.	.	.	.
8C'\	.	8c/	.	8c/	.	.	.	.	.	.	.	.	.	.	.	.	.	.	.
8D'\	.	8d/	.	8d/	.	.	.	.	.	.	.	.	.	.	.	.	.	.	.
8E'\J	.	8e/J	.	8e/J	.	.	.	.	.	.	.	.	.	.	.	.	.	.	.
!	!	!	!	!	!	!	!	!	!	!	!	!	!	!	!	!	!	!LO:LB:g=original	!
=44	=44	=44	=44	=44	=44	=44	=44	=44	=44	=44	=44	=44	=44	=44	=44	=44	=44	=44	=44
!	!	!	!LO:DY:rj:t=p.	!	!LO:DY:rj	!	!	!	!	!	!	!	!	!	!	!	!LO:TX:a:i:t=Solo	!LO:TX:a:t=Solo.	!
4F\	.	4f/	p	4f/	p	1r	.	.	.	4r	.	4r	.	.	.	1r	4r	4r	.
4r	.	4f/	.	4f/	.	.	.	.	.	4a-X\	Do-	4ff\	do-	.	.	.	4ff\	4aa-\	.
2r	.	4f/	.	4f/	.	.	.	.	.	4cc\	.	4aa-X\	-mi-	.	.	.	4aa-\	4ccc\	.
.	.	4f/	.	4f/	.	.	.	.	.	4a-\	-mi-	4ff\	-na-	.	.	.	4ff\	4aa-\	.
!	!	!LO:LB:g=original	!	!	!	!	!	!	!	!	!	!	!	!	!	!	!	!	!
=45	=45	=45	=45	=45	=45	=45	=45	=45	=45	=45	=45	=45	=45	=45	=45	=45	=45	=45	=45
!LO:TX:a:t=1.	!	!	!	!	!	!	!	!	!	!	!	!	!	!	!	!	!	!	!
1r	.	4c/	.	4c/	.	1r	.	.	.	(4.g\	-na-	4.een\	-re	.	.	1r	(4.eeX\	4.gg\	.
.	.	4c/	.	4c/	.	.	.	.	.	.	.	.	.	.	.	.	.	.	.
.	.	.	.	.	.	.	.	.	.	8a-\)	.	8ff\	.	.	.	.	8ff\)	8aa-\	.
.	.	4c/	.	4c/	.	.	.	.	.	4b-\	-re	4gg\	.	.	.	.	4gg'\	4bb-\	.
.	.	4c/	.	4c/	.	.	.	.	.	4b-\	in	4gg\	in	.	.	.	4gg'\	4bb-\	.
!	!	!	!	!	!	!	!	!	!	!	!	!LO:LB:g=original	!	!	!	!	!	!	!
=46	=46	=46	=46	=46	=46	=46	=46	=46	=46	=46	=46	=46	=46	=46	=46	=46	=46	=46	=46
4r	p	4f/	.	4f/	.	1r	.	.	.	4.a-\	me-	4.ff\	me-	.	.	1r	4.ff\	4.aa-\	.
4F\	.	4f/	.	4f/	.	.	.	.	.	.	.	.	.	.	.	.	.	.	.
.	.	.	.	.	.	.	.	.	.	8cc\	.	8aa-\	.	.	.	.	8aa-\	8ccc\	.
4c\	.	4f/	.	4a-/	.	.	.	.	.	8cc\L	.	8aa-\L	.	.	.	.	(8aa-\L	8ccc\L	.
.	.	.	.	.	.	.	.	.	.	8b-\J	.	8gg\J	.	.	.	.	8gg\	8bb-\	.
4C/	.	4en/	.	4f/	.	.	.	.	.	8a-\L	-di-	8ff\L	.	.	.	.	8ff\	8aa-\	.
.	.	.	.	.	.	.	.	.	.	8g\J	.	8een\J	-di-	.	.	.	8eeX\J)	8gg\J	.
!	!	!	!	!LO:LB:g=original	!	!	!	!	!	!LO:LB:g=original	!	!	!	!	!	!	!	!	!
=47	=47	=47	=47	=47	=47	=47	=47	=47	=47	=47	=47	=47	=47	=47	=47	=47	=47	=47	=47
!	!	!	!LO:DY:rj:t=f&colon;	!	!	!	!	!	!	!	!	!	!	!	!	!	!	!	!
4F\	.	4f/	f	4f/	f	1r	.	00r	.	4a-\	-o	4ff\	-o	00r	.	1r	4ff\	4ff\	.
8F'\L	.	8f/L	.	8f/L	.	.	.	.	.	4r	.	4r	.	.	.	.	4r	4r	.
8G'\J	.	8g/J	.	8g/J	.	.	.	.	.	.	.	.	.	.	.	.	.	.	.
!	!	!	!	!	!	!	!	!	!	!	!	!	!	!	!	!	!	!	!
8A-'\L	.	8a-/L	.	8a-\L|	.	.	.	.	.	2r	.	2r	.	.	.	.	2r	2r	.
!	!	!	!	!	!	!	!	!	!	!	!	!	!	!	!	!	!	!	!
8B-'\	.	8b-/	.	8b-\|	.	.	.	.	.	.	.	.	.	.	.	.	.	.	.
!	!	!	!	!	!	!	!	!	!	!	!	!	!	!	!	!	!	!	!
8c'\	.	8cc/	.	8cc\|	.	.	.	.	.	.	.	.	.	.	.	.	.	.	.
!	!	!	!	!	!	!	!	!	!	!	!	!	!	!	!	!	!	!	!
8B-'\J	.	8b-/J	.	8b-\J|	.	.	.	.	.	.	.	.	.	.	.	.	.	.	.
=48	=48	=48	=48	=48	=48	=48	=48	=48	=48	=48	=48	=48	=48	=48	=48	=48	=48	=48	=48
!	!	!	!	!	!	!	!	!	!	!LO:TX:a:t=1.	!	!LO:TX:a:t=1.	!	!	!	!	!LO:TX:a:t=1.	!LO:TX:a:t=1.	!
8A-'\L	.	8a-/L	.	8a-/L	.	1r	.	.	.	1r	.	1r	.	.	.	1r	1r	1r	.
8G'\	.	8g/	.	8g/	.	.	.	.	.	.	.	.	.	.	.	.	.	.	.
8F'\	.	8f/	.	8f/	.	.	.	.	.	.	.	.	.	.	.	.	.	.	.
!	!	!	!	!LO:SIC:v:s=8e-/J	!	!	!	!	!	!	!	!	!	!	!	!	!	!	!
8E-X'\J	.	8e-/J	.	8en/J	.	.	.	.	.	.	.	.	.	.	.	.	.	.	.
8D'/L	.	8d/L	.	8d/L	.	.	.	.	.	.	.	.	.	.	.	.	.	.	.
!	!	!LO:SIC:v:s=8B-/	!	!	!	!	!	!	!	!	!	!	!	!	!	!	!	!	!
8BB-'/	.	8A-/	.	8B-/	.	.	.	.	.	.	.	.	.	.	.	.	.	.	.
!	!	!LO:SIC:v:s=8c/	!	!	!	!	!	!	!	!	!	!	!	!	!	!	!	!	!
8C'/	.	8B-/	.	8c/	.	.	.	.	.	.	.	.	.	.	.	.	.	.	.
!	!	!LO:SIC:v:s=8d/J	!	!	!	!	!	!	!	!	!	!	!	!	!	!	!	!	!
8D'/J	.	8c/J	.	8d/J	.	.	.	.	.	.	.	.	.	.	.	.	.	.	.
=49	=49	=49	=49	=49	=49	=49	=49	=49	=49	=49	=49	=49	=49	=49	=49	=49	=49	=49	=49
!	!	!	!LO:DY:rj:t=p.	!	!	!	!	!	!	!	!	!	!	!	!	!	!LO:TX:a:i:t=Solo	!	!
4E-\	.	4e-/	p	4e-/	p	1r	.	.	.	4r	.	4r	.	.	.	1r	4r	4r	.
4r	.	4e-/	.	4e-/	.	.	.	.	.	4g\	Do-	4ee-X\	do-	.	.	.	4ee-\	4gg\	.
2r	.	4e-/	.	4e-/	.	.	.	.	.	4b-\	.	4gg\	.	.	.	.	4gg\	4bb-\	.
.	.	4e-/	.	4e-/	.	.	.	.	.	4g\	-mi-	4ee-\	-mi-	.	.	.	4ee-\	4gg\	.
!	!	!	!	!	!	!	!	!	!	!	!	!	!	!	!	!	!LO:LB:g=original	!	!
=50	=50	=50	=50	=50	=50	=50	=50	=50	=50	=50	=50	=50	=50	=50	=50	=50	=50	=50	=50
!LO:TX:a:t=1.	!	!	!	!	!	!	!	!	!	!	!	!	!	!	!	!	!	!	!
1r	.	4B-/	.	4B-/	.	1r	.	.	.	4.f\	-na-	4.dd\	-ne-	.	.	1r	4.dd\	4.ff\	.
.	.	4B-/	.	4B-/	.	.	.	.	.	.	.	.	.	.	.	.	.	.	.
.	.	.	.	.	.	.	.	.	.	8g\	.	8ee-\	.	.	.	.	8ee-\	8gg\	.
.	.	4B-/	.	4B-/	.	.	.	.	.	4a-\	-re	4ff\	-re	.	.	.	4ff'\	4aa-\	.
.	.	4ryy	.	4B-/	.	.	.	.	.	4a-\	in	4ff\	in	.	.	.	4ff'\	4aa-\	.
=51	=51	=51	=51	=51	=51	=51	=51	=51	=51	=51	=51	=51	=51	=51	=51	=51	=51	=51	=51
4r	.	4e-/	.	4e-/	.	1r	.	00r	.	4.g\	me-	4.ee-\	me-	1r	.	1r	4.ee-\	4.gg\	.
4E-\	p	4e-/	.	4e-/	.	.	.	.	.	.	.	.	.	.	.	.	.	.	.
.	.	.	.	.	.	.	.	.	.	8b-\	.	8gg\	-di-	.	.	.	8gg\	8bb-\	.
4B-\	.	4e-/	.	4g/	.	.	.	.	.	8b-\L	.	8gg\L	.	.	.	.	(8gg\L	8bb-\L	.
.	.	.	.	.	.	.	.	.	.	8a-\J	.	8ff\J	.	.	.	.	8ff\	8aa-\	.
!	!	!	!	!LO:SIC:v:s=4f/	!	!	!	!	!	!	!	!	!	!	!	!	!	!	!
4BB-/	.	4d/	.	4e-/	.	.	.	.	.	8g\L	.	8ee-\L	.	.	.	.	8ee-\)	8gg\	.
.	.	.	.	.	.	.	.	.	.	8f\J	-di-	8dd\J	.	.	.	.	8dd\J	8ff\J	.
!	!	!	!	!	!	!	!	!	!	!	!	!LO:LB:g=original	!	!	!	!	!	!	!
=52	=52	=52	=52	=52	=52	=52	=52	=52	=52	=52	=52	=52	=52	=52	=52	=52	=52	=52	=52
!	!	!	!	!	!	!	!	!	!	!	!	!	!	!LO:TX:a:i:t=Solo.	!	!LO:TX:a:i:t=Solo	!LO:TX:a:i:t=Solo	!	!
4E-\	.	4e-/	.	4e-/	.	1r	.	.	.	4g\	-o	4ee-\	-o	4r	.	4r	4ee-\	4ee-\	.
4E-\	.	4B-/	.	4g/	.	.	.	.	.	8b-\L	i-	8gg\L	i-	8g\L	.	8b-\L	8gg\L	8bb-\L	.
.	.	.	.	.	.	.	.	.	.	8cc\J	.	8aa-\J	.	8a-\J	.	8cc\J	8aa-X\J	8ccc\J	.
4EE-/	.	4B-/	.	4g/	.	.	.	.	.	4b-\	-ni-	4gg\	-ni-	4g\	.	4b-\	4gg\	4bb-\	.
4E-\	.	4B-/	.	4g/	.	.	.	.	.	8a-\L	-mi-	8ff\L	-mi-	8f\L	.	8a-\L	8ff\L	8aa-\L	.
.	.	.	.	.	.	.	.	.	.	8g\J	.	8ee-\J	.	8e-\J	.	8g\J	8ee-\J	8gg\J	.
!	!	!LO:LB:g=original	!	!	!	!	!	!	!	!LO:LB:g=original	!	!	!	!	!	!	!	!	!
=53	=53	=53	=53	=53	=53	=53	=53	=53	=53	=53	=53	=53	=53	=53	=53	=53	=53	=53	=53
4r	.	4r	.	4r	.	1r	.	.	.	(8g\L	-co-	8ee-\L	-co-	8e-/L	.	8g\L	(8ee-\L	8gg\L	.
.	.	.	.	.	.	.	.	.	.	8f\J)	.	8dd\J	.	8B-/J	.	8f\J	8dd\J)	8ff\J	.
4B-\	.	4d/	.	4f/	.	.	.	.	.	2f\	.	2dd\	.	2B-/	.	2f\	2dd\	2ff\	.
4BB-/	.	4d/	.	4f/	.	.	.	.	.	.	.	.	.	.	.	.	.	.	.
4B-\	.	4d/	.	4e-/	.	.	.	.	.	8g\L	.	8ee-\L	.	8e-\L	.	8g\L	(8ee-\L	8gg\L	.
.	.	.	.	.	.	.	.	.	.	8a-\J	.	8ff\J	.	8f\J	.	8a-\J	8ff\J)	8aa-\J	.
!	!	!	!	!	!	!	!	!	!	!	!	!	!	!LO:LB:g=original	!	!	!	!LO:LB:g=original	!
=54	=54	=54	=54	=54	=54	=54	=54	=54	=54	=54	=54	=54	=54	=54	=54	=54	=54	=54	=54
4r	.	4r	.	4r	.	1r	.	.	.	4.g\	.	4.ee-\	.	4.e-\	.	4.g\	4.ee-\	4.gg\	.
4E-\	.	4B-/	.	4g/	.	.	.	.	.	.	.	.	.	.	.	.	.	.	.
.	.	.	.	.	.	.	.	.	.	8b-\	.	8gg\	.	8g\	.	8b-\	8gg\	8bb-\	.
4EE-/	.	4B-/	.	4g/	.	.	.	.	.	8b-\L	-rum	8gg\L	-rum	(8g\L	.	8b-\L	(8gg\L	(8bb-\L	.
.	.	.	.	.	.	.	.	.	.	8a-\J	.	8ff\J	.	8f\)	.	8a-\	8ff\)	8aa-\)	.
4E-\	.	4e-/	.	4g/	.	.	.	.	.	8a-\L	.	8ee-\L	.	(8f\	.	8a-\	(8ff\	(8aa-\	.
.	.	.	.	.	.	.	.	.	.	8g\J	tu-	8dd\J	tu-	8e-\J)	.	8g\J	8ee-\J)	8gg\J)	.
!	!	!	!	!LO:PB:g=original	!	!	!	!	!	!	!	!	!	!	!	!	!	!	!
=55	=55	=55	=55	=55	=55	=55	=55	=55	=55	=55	=55	=55	=55	=55	=55	=55	=55	=55	=55
4B-\	.	(2e-/	.	2g/	.	1r	.	1r	.	2g\	-o-	2ee-\	-o-	2e-\	.	2g\	(2ee-\	2gg\	.
4BB-/	.	.	.	.	.	.	.	.	.	.	.	.	.	.	.	.	.	.	.
8B-\L	.	4d/)	.	4f/	.	.	.	.	.	4f\	-rum	4dd\	-rum	4B-/	.	4f\	4dd\)	4ff\	.
8A-\	.	.	.	.	.	.	.	.	.	.	.	.	.	.	.	.	.	.	.
8G\	.	4r	.	4r	.	.	.	.	.	4r	.	4r	.	4r	.	4r	4r	4r	.
8F\J	.	.	.	.	.	.	.	.	.	.	.	.	.	.	.	.	.	.	.
!	!	!	!	!	!	!LO:LB:g=original	!	!LO:LB:g=original	!	!	!	!	!	!	!	!	!	!	!
=56	=56	=56	=56	=56	=56	=56	=56	=56	=56	=56	=56	=56	=56	=56	=56	=56	=56	=56	=56
*	*	*tremolo	*	*	*	*	*	*	*	*	*	*	*	*	*	*	*	*	*
!	!	!	!LO:DY:rj:t=f&colon;	!	!	!	!	!	!	!	!	!	!	!	!LO:DY:rj:t=f.	!	!	!	!
8E-\L	f	16B-/LL	f	4g/	.	2E-\	Do-	2B-\	Do-	2g\	Do-	2ee-\	Do-	1e-	f	1g	1ee-	1gg	.
.	.	16B-/	.	.	.	.	.	.	.	.	.	.	.	.	.	.	.	.	.
!	!	!	!	!	!LO:DY:t=for	!	!	!	!	!	!	!	!	!	!	!	!	!	!
8E-\	.	16B-/	.	.	f	.	.	.	.	.	.	.	.	.	.	.	.	.	.
.	.	16B-/	.	.	.	.	.	.	.	.	.	.	.	.	.	.	.	.	.
8E-\	.	16B-/	.	16g/LL	.	.	.	.	.	.	.	.	.	.	.	.	.	.	.
.	.	16B-/	.	(16a-/	.	.	.	.	.	.	.	.	.	.	.	.	.	.	.
8E-\J	.	16B-/	.	16g/)	.	.	.	.	.	.	.	.	.	.	.	.	.	.	.
.	.	16B-/JJ	.	16f/JJ	.	.	.	.	.	.	.	.	.	.	.	.	.	.	.
8E-\L	.	16B-/LL	.	4e-/	.	2E-\	-mi-	2B-\	-mi-	2g\	-mi-	2ee-\	-mi-	.	.	.	.	.	.
.	.	16B-/	.	.	.	.	.	.	.	.	.	.	.	.	.	.	.	.	.
8E-\	.	16B-/	.	.	.	.	.	.	.	.	.	.	.	.	.	.	.	.	.
.	.	16B-/	.	.	.	.	.	.	.	.	.	.	.	.	.	.	.	.	.
8E-\	.	16B-/	.	(16b-/LL	.	.	.	.	.	.	.	.	.	.	.	.	.	.	.
.	.	16B-/	.	16cc/	.	.	.	.	.	.	.	.	.	.	.	.	.	.	.
8E-\J	.	16B-/	.	16b-/)	.	.	.	.	.	.	.	.	.	.	.	.	.	.	.
.	.	16B-/JJ	.	16a-/JJ	.	.	.	.	.	.	.	.	.	.	.	.	.	.	.
=57	=57	=57	=57	=57	=57	=57	=57	=57	=57	=57	=57	=57	=57	=57	=57	=57	=57	=57	=57
8E-\L	.	16B-/LL	.	8g/L	.	2E-\	-na-	2B-\	-na-	2g\	-na-	2ee-\	-na-	1e-	.	1g	1ee-	1gg	.
.	.	16B-/	.	.	.	.	.	.	.	.	.	.	.	.	.	.	.	.	.
8E-\	.	16B-/	.	8e-/	.	.	.	.	.	.	.	.	.	.	.	.	.	.	.
.	.	16B-/	.	.	.	.	.	.	.	.	.	.	.	.	.	.	.	.	.
8E-\	.	16B-/	.	8b-/	.	.	.	.	.	.	.	.	.	.	.	.	.	.	.
.	.	16B-/	.	.	.	.	.	.	.	.	.	.	.	.	.	.	.	.	.
8E-\J	.	16B-/	.	8g/J	.	.	.	.	.	.	.	.	.	.	.	.	.	.	.
.	.	16B-/JJ	.	.	.	.	.	.	.	.	.	.	.	.	.	.	.	.	.
8E-\L	.	16B-/LL	.	8ee-\L	.	2E-\	-re	2B-\	-re	2g\	-re	2ee-\	-re	.	.	.	.	.	.
.	.	16B-/	.	.	.	.	.	.	.	.	.	.	.	.	.	.	.	.	.
8E-\	.	16B-/	.	8b-\	.	.	.	.	.	.	.	.	.	.	.	.	.	.	.
.	.	16B-/	.	.	.	.	.	.	.	.	.	.	.	.	.	.	.	.	.
8E-\	.	16B-/	.	8gg\	.	.	.	.	.	.	.	.	.	.	.	.	.	.	.
.	.	16B-/	.	.	.	.	.	.	.	.	.	.	.	.	.	.	.	.	.
8E-\J	.	16B-/	.	8ee-\J	.	.	.	.	.	.	.	.	.	.	.	.	.	.	.
.	.	16B-/JJ	.	.	.	.	.	.	.	.	.	.	.	.	.	.	.	.	.
!	!	!	!	!	!	!	!	!	!	!	!	!LO:LB:g=original	!	!	!	!	!	!	!
=58	=58	=58	=58	=58	=58	=58	=58	=58	=58	=58	=58	=58	=58	=58	=58	=58	=58	=58	=58
*	*	*	*	*	*	*	*	*	*	*	*	*	*ij	*	*	*	*	*	*
8BB-/L	.	16d/LL	.	4dd\	.	2B-\	Do-	2B-\	do-	2f\	Do-	2dd\	Do-	1B-	.	1f	1dd	1ff	.
.	.	16d/	.	.	.	.	.	.	.	.	.	.	.	.	.	.	.	.	.
8BB-/	.	16d/	.	.	.	.	.	.	.	.	.	.	.	.	.	.	.	.	.
.	.	16d/	.	.	.	.	.	.	.	.	.	.	.	.	.	.	.	.	.
8BB-/	.	16d/	.	(16f/LL	.	.	.	.	.	.	.	.	.	.	.	.	.	.	.
.	.	16d/	.	16g/	.	.	.	.	.	.	.	.	.	.	.	.	.	.	.
8BB-/J	.	16d/	.	16f/)	.	.	.	.	.	.	.	.	.	.	.	.	.	.	.
.	.	16d/JJ	.	16e-/JJ	.	.	.	.	.	.	.	.	.	.	.	.	.	.	.
8BB-/L	.	16d/LL	.	4d/	.	2B-\	-mi-	2B-\	-mi-	2f\	-mi	2dd\	-mi-	.	.	.	.	.	.
.	.	16d/	.	.	.	.	.	.	.	.	.	.	.	.	.	.	.	.	.
8BB-/	.	16d/	.	.	.	.	.	.	.	.	.	.	.	.	.	.	.	.	.
.	.	16d/	.	.	.	.	.	.	.	.	.	.	.	.	.	.	.	.	.
8BB-/	.	16d/	.	(16a-/LL	.	.	.	.	.	.	.	.	.	.	.	.	.	.	.
.	.	16d/	.	16b-/	.	.	.	.	.	.	.	.	.	.	.	.	.	.	.
8BB-/J	.	16d/	.	16a-/)	.	.	.	.	.	.	.	.	.	.	.	.	.	.	.
.	.	16d/JJ	.	16g/JJ	.	.	.	.	.	.	.	.	.	.	.	.	.	.	.
=59	=59	=59	=59	=59	=59	=59	=59	=59	=59	=59	=59	=59	=59	=59	=59	=59	=59	=59	=59
!	!	!	!	!	!	!	!	!	!	!LO:TX:t=P:problem=takt zapisany repetycją	!	!	!	!	!	!	!	!	!
8BB-/L	.	16d/LL	.	8a-'/L	.	2B-\	-na-	2B-\	-na-	2f\yy	-na-	2dd\	-na-	1B-	.	1f	1dd	1ff	.
.	.	16d/	.	.	.	.	.	.	.	.	.	.	.	.	.	.	.	.	.
8BB-/	.	16d/	.	8d/	.	.	.	.	.	.	.	.	.	.	.	.	.	.	.
.	.	16d/	.	.	.	.	.	.	.	.	.	.	.	.	.	.	.	.	.
8BB-/	.	16d/	.	8b-/	.	.	.	.	.	.	.	.	.	.	.	.	.	.	.
.	.	16d/	.	.	.	.	.	.	.	.	.	.	.	.	.	.	.	.	.
8BB-/J	.	16d/	.	8f/J	.	.	.	.	.	.	.	.	.	.	.	.	.	.	.
.	.	16d/JJ	.	.	.	.	.	.	.	.	.	.	.	.	.	.	.	.	.
!	!	!	!	!LO:LB:g=original	!	!	!	!	!	!	!	!	!	!	!	!	!	!	!
8BB-/L	.	16d/LL	.	8dd\L	.	2B-\	-re	2B-\	-re	2f\yy	-re,	2dd\	-re	.	.	.	.	.	.
*	*	*	*	*	*	*	*	*	*	*	*	*	*Xij	*	*	*	*	*	*
.	.	16d/	.	.	.	.	.	.	.	.	.	.	.	.	.	.	.	.	.
8BB-/	.	16d/	.	8b-\	.	.	.	.	.	.	.	.	.	.	.	.	.	.	.
.	.	16d/	.	.	.	.	.	.	.	.	.	.	.	.	.	.	.	.	.
8BB-/	.	16d/	.	8ff\	.	.	.	.	.	.	.	.	.	.	.	.	.	.	.
.	.	16d/	.	.	.	.	.	.	.	.	.	.	.	.	.	.	.	.	.
8BB-/J	.	16d/	.	8dd\J	.	.	.	.	.	.	.	.	.	.	.	.	.	.	.
.	.	16d/JJ	.	.	.	.	.	.	.	.	.	.	.	.	.	.	.	.	.
!	!	!	!	!	!	!	!	!	!	!LO:LB:g=original	!	!	!	!	!	!	!	!	!
=60	=60	=60	=60	=60	=60	=60	=60	=60	=60	=60	=60	=60	=60	=60	=60	=60	=60	=60	=60
!	!	!	!	!	!	!	!	!	!	!	!	!	!	!LO:TX:t=P:problem=w całym takcie nuta poprawiona ołówkiem na cc	!	!	!	!	!
!	!	!	!	!	!	!	!	!	!	!	!	!	!	!LO:SIC:v:s=4cc\	!	!	!	!	!
!	!	!	!	!	!	!	!	!	!	!	!	!	!	!LO:TX:a:t=c	!	!	!	!	!
8E-\L	.	16B-/LL	.	8ee-\L	.	2E-\	in	2B-\	in	2g\	in	2ee-\	in	4d\	.	4g\	1ee-	1gg	.
.	.	16B-/	.	.	.	.	.	.	.	.	.	.	.	.	.	.	.	.	.
8E-\	.	16B-/	.	8b-\J	.	.	.	.	.	.	.	.	.	.	.	.	.	.	.
.	.	16B-/	.	.	.	.	.	.	.	.	.	.	.	.	.	.	.	.	.
!	!	!	!	!	!	!	!	!	!	!	!	!	!	!LO:SIC:v:s=8cc\L	!	!	!	!	!
8E-\	.	16B-/	.	4.b-\	.	.	.	.	.	.	.	.	.	8d\L	.	8g\L	.	.	.
.	.	16B-/	.	.	.	.	.	.	.	.	.	.	.	.	.	.	.	.	.
!	!	!	!	!	!	!	!	!	!	!	!	!	!	!LO:SIC:v:s=8cc\J	!	!	!	!	!
8E-\J	.	16B-/	.	.	.	.	.	.	.	.	.	.	.	8d\J	.	8g\J	.	.	.
.	.	16B-/JJ	.	.	.	.	.	.	.	.	.	.	.	.	.	.	.	.	.
!	!	!	!	!	!	!	!	!	!	!	!	!	!	!LO:SIC:v:s=4cc\	!	!	!	!	!
8E-\L	.	16B-/LL	.	.	.	4E-\	me-	4B-\	me-	4g\	me-	4ee-\	me-	4d\	.	4g\	.	.	.
.	.	16B-/	.	.	.	.	.	.	.	.	.	.	.	.	.	.	.	.	.
8E-\	.	16B-/	.	8bb-\L	.	.	.	.	.	.	.	.	.	.	.	.	.	.	.
.	.	16B-/	.	.	.	.	.	.	.	.	.	.	.	.	.	.	.	.	.
8E-\	.	16B-/	.	8gg\	.	4E-\	-di-	4B-\	-di-	4g\	-di-	4ee-\	-di-	4r	.	4r	.	.	.
.	.	16B-/	.	.	.	.	.	.	.	.	.	.	.	.	.	.	.	.	.
8E-\J	.	16B-/	.	8ee-\J	.	.	.	.	.	.	.	.	.	.	.	.	.	.	.
.	.	16B-/JJ	.	.	.	.	.	.	.	.	.	.	.	.	.	.	.	.	.
!	!	!	!	!	!	!	!	!	!	!	!	!	!	!	!	!LO:LB:g=original	!	!	!
=61	=61	=61	=61	=61	=61	=61	=61	=61	=61	=61	=61	=61	=61	=61	=61	=61	=61	=61	=61
8BB-/L	.	16d/LL	.	8ee-\L	.	4B-\	-o	4B-\	-o	4f\	-o	4dd\	-o	4B-/	.	4f\	1dd	1ff	.
.	.	16d/	.	.	.	.	.	.	.	.	.	.	.	.	.	.	.	.	.
8BB-/	.	16d/	.	8dd\J	.	.	.	.	.	.	.	.	.	.	.	.	.	.	.
.	.	16d/	.	.	.	.	.	.	.	.	.	.	.	.	.	.	.	.	.
8BB-/	.	16d/	.	4.dd\	.	4B-\	i-	4B-\	i-	4f\	i-	4dd\	i-	8B-/L	.	8f\L	.	.	.
.	.	16d/	.	.	.	.	.	.	.	.	.	.	.	.	.	.	.	.	.
8BB-/J	.	16d/	.	.	.	.	.	.	.	.	.	.	.	8B-/J	.	8f\J	.	.	.
.	.	16d/JJ	.	.	.	.	.	.	.	.	.	.	.	.	.	.	.	.	.
8BB-/L	.	16d/LL	.	.	.	4B-\	-ni-	4B-\	-ni-	4f\	-ni-	4dd\	-ni-	4B-/	.	4f\	.	.	.
.	.	16d/	.	.	.	.	.	.	.	.	.	.	.	.	.	.	.	.	.
8BB-/	.	16d/	.	8aa-\L	.	.	.	.	.	.	.	.	.	.	.	.	.	.	.
.	.	16d/	.	.	.	.	.	.	.	.	.	.	.	.	.	.	.	.	.
8BB-/	.	16d/	.	8ff\	.	4B-\	-mi-	4B-\	-mi-	4f\	-mi-	4dd\	-mi-	4r	.	4r	.	.	.
.	.	16d/	.	.	.	.	.	.	.	.	.	.	.	.	.	.	.	.	.
8BB-/J	.	16d/	.	8dd\J	.	.	.	.	.	.	.	.	.	.	.	.	.	.	.
.	.	16d/JJ	.	.	.	.	.	.	.	.	.	.	.	.	.	.	.	.	.
=62	=62	=62	=62	=62	=62	=62	=62	=62	=62	=62	=62	=62	=62	=62	=62	=62	=62	=62	=62
*	*	*	*	*tremolo	*	*	*	*	*	*	*	*	*	*	*	*	*	*	*
8E-\L	.	16g/LL	.	16ee-\LL	.	2E-\	-co-	2B-\	-co-	2g\	-co-	2ee-\	-co-	2E-/	.	2e-\	2ee-\	2gg\	.
.	.	16g/	.	16ee-\	.	.	.	.	.	.	.	.	.	.	.	.	.	.	.
8E-\	.	16g/	.	16ee-\	.	.	.	.	.	.	.	.	.	.	.	.	.	.	.
.	.	16g/JJ	.	16ee-\JJ	.	.	.	.	.	.	.	.	.	.	.	.	.	.	.
8E-\	.	16b-\LL	.	16gg\LL	.	.	.	.	.	.	.	.	.	.	.	.	.	.	.
.	.	16b-\	.	16gg\	.	.	.	.	.	.	.	.	.	.	.	.	.	.	.
8E-\J	.	16b-\	.	16gg\	.	.	.	.	.	.	.	.	.	.	.	.	.	.	.
.	.	16b-\JJ	.	16gg\JJ	.	.	.	.	.	.	.	.	.	.	.	.	.	.	.
8A-\L	.	16cc\LL	.	16aa-\LL	.	4A-\	-rum	4c\	-rum	4a-\	-rum	4ff\	.	2e-\	.	2a-\	2ff\	2aa-\	.
.	.	16cc\	.	16aa-\	.	.	.	.	.	.	.	.	.	.	.	.	.	.	.
8A-\	.	16cc\	.	16aa-\	.	.	.	.	.	.	.	.	.	.	.	.	.	.	.
.	.	16cc\JJ	.	16aa-\JJ	.	.	.	.	.	.	.	.	.	.	.	.	.	.	.
8A-\	.	16a-\LL	.	16ff\LL	.	4A-\	tu-	4c\	tu-	4a-\	tu-	4ff\	-rum	.	.	.	.	.	.
.	.	16a-\	.	16ff\	.	.	.	.	.	.	.	.	.	.	.	.	.	.	.
8A-\J	.	16a-\	.	16ff\	.	.	.	.	.	.	.	.	.	.	.	.	.	.	.
.	.	16a-\JJ	.	16ff\JJ	.	.	.	.	.	.	.	.	.	.	.	.	.	.	.
!	!	!	!	!	!	!	!	!	!	!	!	!	!	!	!	!	!LO:LB:g=original	!	!
=63	=63	=63	=63	=63	=63	=63	=63	=63	=63	=63	=63	=63	=63	=63	=63	=63	=63	=63	=63
8B-\L	.	16g/LL	.	16ee-\LL	.	(4B-\	-o-	4B-\	-o-	2g\	-o-	2.ee-\	o-	2e-\	.	2g\	2.ee-\	2gg\	.
.	.	16g/	.	16ee-\	.	.	.	.	.	.	.	.	.	.	.	.	.	.	.
8B-\	.	16g/	.	16ee-\	.	.	.	.	.	.	.	.	.	.	.	.	.	.	.
.	.	16g/	.	16ee-\JJ	.	.	.	.	.	.	.	.	.	.	.	.	.	.	.
8c\	.	16g/	.	16ee-\LL	.	4c\)	.	2c\	.	.	.	.	.	.	.	.	.	.	.
.	.	16g/	.	16ee-\	.	.	.	.	.	.	.	.	.	.	.	.	.	.	.
8c\J	.	16g/	.	16ee-\	.	.	.	.	.	.	.	.	.	.	.	.	.	.	.
.	.	16g/JJ	.	16ee-\JJ	.	.	.	.	.	.	.	.	.	.	.	.	.	.	.
8A-\L	.	16f/LL	.	16ee-\LL	.	(4A-\	.	.	.	2f\	.	.	.	4e-\	.	2f\	.	2ff\	.
.	.	16f/	.	16ee-\	.	.	.	.	.	.	.	.	.	.	.	.	.	.	.
8A-\	.	16f/	.	16ee-\	.	.	.	.	.	.	.	.	.	.	.	.	.	.	.
.	.	16f/	.	16ee-\JJ	.	.	.	.	.	.	.	.	.	.	.	.	.	.	.
8B-\	.	16f/	.	16dd\LL	.	4B-\)	.	4B-\	.	.	.	4dd\	.	4B-/	.	.	4dd\	.	.
.	.	16f/	.	16dd\	.	.	.	.	.	.	.	.	.	.	.	.	.	.	.
8B-\J	.	16f/	.	16dd\	.	.	.	.	.	.	.	.	.	.	.	.	.	.	.
.	.	16f/JJ	.	16dd\JJ	.	.	.	.	.	.	.	.	.	.	.	.	.	.	.
*	*	*Xtremolo	*	*Xtremolo	*	*	*	*	*	*	*	*	*	*	*	*	*	*	*
!	!	!LO:LB:g=original	!	!	!	!LO:LB:g=original	!	!	!	!	!	!	!	!LO:LB:g=original	!	!	!	!	!
=64	=64	=64	=64	=64	=64	=64	=64	=64	=64	=64	=64	=64	=64	=64	=64	=64	=64	=64	=64
4E-\	.	4g/	.	4ee-\	.	4E-\	-rum	4B-\	-rum	4g\	-rum,	4ee-\	-rum	4G/	.	4e-\	4ee-\	4gg\	.
4r	.	4r	.	4r	.	4r	.	4r	.	4r	.	4r	.	8g\L	.	8b-\L	8gg\L	8bb-\L	.
.	.	.	.	.	.	.	.	.	.	.	.	.	.	8a-\J	.	8cc\J	8aa-X\J	8ccc\J	.
2r	.	4r	.	4r	.	2r	.	2r	.	2r	.	2r	.	4g\	.	4b-\	4gg\	4bb-\	.
!	!	!	!LO:DY:a:rj	!LO:SIC:v:t=custos aa	!LO:DY:rj	!	!	!	!	!	!	!	!	!	!	!	!	!	!
.	.	4B-/	p	4B-/	p	.	.	.	.	.	.	.	.	4f\	.	4a-\	4ff\	4aa-\	.
!	!	!	!	!LO:LB:g=original	!	!	!	!LO:LB:g=original	!	!	!	!	!	!	!	!	!	!	!
=65	=65	=65	=65	=65	=65	=65	=65	=65	=65	=65	=65	=65	=65	=65	=65	=65	=65	=65	=65
*	*	*	*	*tremolo	*	*	*	*	*	*	*	*	*	*	*	*	*	*	*
4r	.	4e-/	.	16e-/LL	.	4r	.	4r	.	4r	.	4r	.	2e-\	.	2g\	2.ee-\	2gg\	.
.	.	.	.	16e-/	.	.	.	.	.	.	.	.	.	.	.	.	.	.	.
!	!	!	!	!	!	!	!	!	!	!	!	!	!	!	!LO:DY:t=f.	!	!	!	!
.	.	.	.	16e-/	.	.	.	.	.	.	.	.	.	.	f	.	.	.	.
.	.	.	.	16e-/JJ	.	.	.	.	.	.	.	.	.	.	.	.	.	.	.
!	!	!	!LO:DY:rj:t=f.	!	!	!	!	!	!	!	!	!LO:TX:t=P:problem=w takcie pokreślone sylaby	!	!	!	!	!	!	!
4c\	.	16g/LL	f	16ee-\LL	f	4c\	tu-	4c\	tu-	4g\	tu-	4ee-\	.	.	.	.	.	.	.
.	.	16g/	.	16ee-\	.	.	.	.	.	.	.	.	.	.	.	.	.	.	.
.	.	16g/	.	16ee-\	.	.	.	.	.	.	.	.	.	.	.	.	.	.	.
.	.	16g/JJ	.	16ee-\JJ	.	.	.	.	.	.	.	.	.	.	.	.	.	.	.
*	*	*tremolo	*	*	*	*	*	*	*	*	*	*	*	*	*	*	*	*	*
4A-\	.	16f/LL	.	16ee-\LL	.	(4A-\	-o-	4c\	-o-	2f\	-o-	4ee-\	.	4e-\	.	2f\	.	2ff\	.
.	.	16f/	.	16ee-\	.	.	.	.	.	.	.	.	.	.	.	.	.	.	.
.	.	16f/	.	16ee-\	.	.	.	.	.	.	.	.	.	.	.	.	.	.	.
.	.	16f/	.	16ee-\JJ	.	.	.	.	.	.	.	.	.	.	.	.	.	.	.
4B-\	.	16f/	.	16dd\LL	.	4B-\)	.	4B-\	.	.	.	4dd\	.	4B-/	.	.	4dd\	.	.
.	.	16f/	.	16dd\	.	.	.	.	.	.	.	.	.	.	.	.	.	.	.
.	.	16f/	.	16dd\	.	.	.	.	.	.	.	.	.	.	.	.	.	.	.
.	.	16f/JJ	.	16dd\JJ	.	.	.	.	.	.	.	.	.	.	.	.	.	.	.
*	*	*Xtremolo	*	*Xtremolo	*	*	*	*	*	*	*	*	*	*	*	*	*	*	*
!	!	!	!	!	!	!	!	!	!	!	!	!LO:LB:g=original	!	!	!	!	!	!	!
=66	=66	=66	=66	=66	=66	=66	=66	=66	=66	=66	=66	=66	=66	=66	=66	=66	=66	=66	=66
4E-\	.	4g/	.	4ee-\	.	4E-\	-rum	4B-\	-rum	4g\	-rum	4ee-\	rum.	4G/	.	4e-\	4ee-\	4gg\	.
!	!	!	!	!	!	!	!	!	!	!	!	!	!	!	!	!	!	!LO:TX:b:t=Solo.	!
4r	.	4r	.	4r	.	4r	.	4r	.	4r	.	4r	.	8g\L	.	8b-\L	8gg\L	8bb-\L	.
.	.	.	.	.	.	.	.	.	.	.	.	.	.	8a-\J	.	8cc\J	8aa-\J	8ccc\J	.
2r	.	4r	.	4r	.	2r	.	2r	.	2r	.	2r	.	4g\	.	4b-\	4gg\	4bb-\	.
!	!	!	!	!	!LO:DY:rj	!	!	!	!	!	!	!	!	!	!	!	!	!	!
.	.	4B-/	.	4B-/	p	.	.	.	.	.	.	.	.	4f\	.	4a-\	4ff\	4aa-\	.
!	!	!	!	!	!	!	!	!	!	!LO:LB:g=original	!	!	!	!	!	!	!	!	!
=67	=67	=67	=67	=67	=67	=67	=67	=67	=67	=67	=67	=67	=67	=67	=67	=67	=67	=67	=67
!LO:TX:a:t=2.	!	!	!	!	!	!LO:TX:a:t=2	!	!LO:TX:a:t=2	!	!LO:TX:a:t=2.	!	!LO:TX:a:t=2.	!	!	!	!	!	!	!
1r	.	4e-/	.	4e-/	.	0r	.	0r	.	0r	.	0r	.	8f\L	.	8a-\L	8ff\L	8aa-\L	.
.	.	.	.	.	.	.	.	.	.	.	.	.	.	8e-\J	.	8g\J	8ee-\J	8gg\J	.
.	.	8e-/L	.	8e-/L	.	.	.	.	.	.	.	.	.	2e-\	.	2g\	2ee-\	2bb-\	.
.	.	8f/J	.	8f/J	.	.	.	.	.	.	.	.	.	.	.	.	.	.	.
.	.	4g/	.	4g/	.	.	.	.	.	.	.	.	.	.	.	.	.	.	.
.	.	4e-/	.	4e-/	.	.	.	.	.	.	.	.	.	8f\L	.	8a-\L	8ff\L	8aa-\L	.
.	.	.	.	.	.	.	.	.	.	.	.	.	.	8g\J	.	8b-\J	8gg\J	8gg\J	.
=68	=68	=68	=68	=68	=68	=68	=68	=68	=68	=68	=68	=68	=68	=68	=68	=68	=68	=68	=68
1r	.	4A-/	.	4A-/	.	.	.	.	.	.	.	.	.	4.f\	.	4.a-\	4.ff\	4.aa-\	.
.	.	4A-/	.	4A-/	.	.	.	.	.	.	.	.	.	.	.	.	.	.	.
.	.	.	.	.	.	.	.	.	.	.	.	.	.	8a-\	.	8cc\	8aa-\	8ccc\	.
!	!	!	!	!	!	!	!	!	!	!	!	!	!	!	!	!	!	!LO:LB:g=original	!
.	.	4B-/	.	4B-/	.	.	.	.	.	.	.	.	.	8g\L	.	8b-\L	8gg\L	8bb-\L	.
.	.	.	.	.	.	.	.	.	.	.	.	.	.	8f\	.	8a-\	8ff\	8aa-\	.
.	.	4B-/	.	4B-/	.	.	.	.	.	.	.	.	.	8e-\	.	8g\	8ee-\	8gg\	.
.	.	.	.	.	.	.	.	.	.	.	.	.	.	8d\J	.	8f\J	8dd\J	8ff\J	.
!	!	!	!	!	!	!	!	!	!	!	!	!	!	!	!	!LO:LB:g=original	!	!	!
=69	=69	=69	=69	=69	=69	=69	=69	=69	=69	=69	=69	=69	=69	=69	=69	=69	=69	=69	=69
*	*	*tremolo	*	*	*	*	*	*	*	*	*	*	*ij	*	*	*	*	*	*
!	!	!	!LO:DY:rj:t=f&colon;	!	!	!	!	!	!	!	!	!	!	!	!	!	!	!	!
8E-\L	.	16g 16B-/LL	f	4e-/	f	2E-\	i-	2e-\	i-	2g\	i-	2ee-\	i-	2e-\	.	2g\	1ee-	2gg\	.
.	.	16g 16B-/	.	.	.	.	.	.	.	.	.	.	.	.	.	.	.	.	.
8E-\	.	16g 16B-/	.	.	.	.	.	.	.	.	.	.	.	.	.	.	.	.	.
.	.	16g 16B-/	.	.	.	.	.	.	.	.	.	.	.	.	.	.	.	.	.
8E-\	.	16g 16B-/	.	16g/LL	.	.	.	.	.	.	.	.	.	.	.	.	.	.	.
.	.	16g 16B-/	.	(16a-/	.	.	.	.	.	.	.	.	.	.	.	.	.	.	.
8E-\J	.	16g 16B-/	.	16b-/)	.	.	.	.	.	.	.	.	.	.	.	.	.	.	.
.	.	16g 16B-/JJ	.	16a-/JJ	.	.	.	.	.	.	.	.	.	.	.	.	.	.	.
8E-\L	.	16g 16B-/LL	.	8g/L	.	4E-\	-ni-	4e-\	-ni-	4g\	-ni-	4ee-\	-ni-	2g\	.	2b-\	.	2gg\	.
.	.	16g 16B-/	.	.	.	.	.	.	.	.	.	.	.	.	.	.	.	.	.
8E-\	.	16g 16B-/	.	8b-/J	.	.	.	.	.	.	.	.	.	.	.	.	.	.	.
.	.	16g 16B-/	.	.	.	.	.	.	.	.	.	.	.	.	.	.	.	.	.
8E-\	.	16g 16B-/	.	8ee-\L	.	4E-\	-mi-	4e-\	-mi-	4b-\	-mi-	4dd-X\	-mi-	.	.	.	.	.	.
.	.	16g 16B-/	.	.	.	.	.	.	.	.	.	.	.	.	.	.	.	.	.
8E-\J	.	16g 16B-/	.	8dd-X\J	.	.	.	.	.	.	.	.	.	.	.	.	.	.	.
.	.	16g 16B-/JJ	.	.	.	.	.	.	.	.	.	.	.	.	.	.	.	.	.
=70	=70	=70	=70	=70	=70	=70	=70	=70	=70	=70	=70	=70	=70	=70	=70	=70	=70	=70	=70
!	!	!	!	!LO:SIC:v:s=8dd-\L	!	!	!	!	!	!	!	!	!	!	!	!	!	!	!
8E-\L	.	16e- 16c/LL	.	8dd\L	.	1E-	-co-	1e-	-co-	2.a-\	-co-	2.cc\	-co-	2.a-\	.	2.cc\	2.cc\	2.aa-\	.
.	.	16e- 16c/	.	.	.	.	.	.	.	.	.	.	.	.	.	.	.	.	.
8E-\	.	16e- 16c/	.	8cc\J	.	.	.	.	.	.	.	.	.	.	.	.	.	.	.
.	.	16e- 16c/	.	.	.	.	.	.	.	.	.	.	.	.	.	.	.	.	.
8E-\	.	16e- 16c/	.	4.cc\	.	.	.	.	.	.	.	.	.	.	.	.	.	.	.
.	.	16e- 16c/	.	.	.	.	.	.	.	.	.	.	.	.	.	.	.	.	.
8E-\J	.	16e- 16c/	.	.	.	.	.	.	.	.	.	.	.	.	.	.	.	.	.
.	.	16e- 16c/JJ	.	.	.	.	.	.	.	.	.	.	.	.	.	.	.	.	.
8E-\L	.	16e- 16c/LL	.	.	.	.	.	.	.	.	.	.	.	.	.	.	.	.	.
.	.	16e- 16c/	.	.	.	.	.	.	.	.	.	.	.	.	.	.	.	.	.
!	!	!	!	!LO:LB:g=original	!	!	!	!	!	!	!	!	!	!	!	!	!	!	!
8E-\	.	16e- 16c/	.	8aa-\L	.	.	.	.	.	.	.	.	.	.	.	.	.	.	.
.	.	16e- 16c/	.	.	.	.	.	.	.	.	.	.	.	.	.	.	.	.	.
8E-\	.	16e- 16c/	.	8ff\	.	.	.	.	.	4f\	.	4ddn\	.	4f\	.	4dd\	4dd\	4ff\	.
.	.	16e- 16c/	.	.	.	.	.	.	.	.	.	.	.	.	.	.	.	.	.
8E-\J	.	16e- 16c/	.	8ddn\J	.	.	.	.	.	.	.	.	.	.	.	.	.	.	.
.	.	16e- 16c/JJ	.	.	.	.	.	.	.	.	.	.	.	.	.	.	.	.	.
=71	=71	=71	=71	=71	=71	=71	=71	=71	=71	=71	=71	=71	=71	=71	=71	=71	=71	=71	=71
8E-\L	.	16g 16B-/LL	.	4ee-\	.	2.E-\	-rum	2.e-\	-rum	2.g\	-rum	2.ee-\	-rum	1g	.	2ee-\	1ee-	1gg	.
*	*	*	*	*	*	*	*	*	*	*	*	*	*Xij	*	*	*	*	*	*
.	.	16g 16B-/	.	.	.	.	.	.	.	.	.	.	.	.	.	.	.	.	.
8E-\	.	16g 16B-/	.	.	.	.	.	.	.	.	.	.	.	.	.	.	.	.	.
.	.	16g 16B-/	.	.	.	.	.	.	.	.	.	.	.	.	.	.	.	.	.
8E-\	.	16g 16B-/	.	16g/LL	.	.	.	.	.	.	.	.	.	.	.	.	.	.	.
.	.	16g 16B-/	.	16a-/	.	.	.	.	.	.	.	.	.	.	.	.	.	.	.
8E-\J	.	16g 16B-/	.	16b-/	.	.	.	.	.	.	.	.	.	.	.	.	.	.	.
.	.	16g 16B-/JJ	.	16a-/JJ	.	.	.	.	.	.	.	.	.	.	.	.	.	.	.
8E-\L	.	16g 16B-/LL	.	8g/L	.	.	.	.	.	.	.	.	.	.	.	2b-\	.	.	.
.	.	16g 16B-/	.	.	.	.	.	.	.	.	.	.	.	.	.	.	.	.	.
8E-\	.	16g 16B-/	.	8b-/J	.	.	.	.	.	.	.	.	.	.	.	.	.	.	.
.	.	16g 16B-/	.	.	.	.	.	.	.	.	.	.	.	.	.	.	.	.	.
8E-\	.	16g 16B-/	.	8ee-\L	.	4E-\	tu-	4e-\	tu-	4b-\	tu-	4dd-X\	tu-	.	.	.	.	.	.
.	.	16g 16B-/	.	.	.	.	.	.	.	.	.	.	.	.	.	.	.	.	.
8E-\J	.	16g 16B-/	.	8dd-X\J	.	.	.	.	.	.	.	.	.	.	.	.	.	.	.
.	.	16g 16B-/JJ	.	.	.	.	.	.	.	.	.	.	.	.	.	.	.	.	.
=72	=72	=72	=72	=72	=72	=72	=72	=72	=72	=72	=72	=72	=72	=72	=72	=72	=72	=72	=72
!	!	!	!	!LO:SIC:v:s=8dd-\L	!	!	!	!	!	!	!	!	!	!	!	!	!	!	!
8E-\L	.	16e- 16c/LL	.	8dd\L	.	1E-	-o-	1e-	-o-	2.a-\	-o-	2.cc\	-o-	2.a-\	.	2.cc\	2.cc\	2.aa-\	.
.	.	16e- 16c/	.	.	.	.	.	.	.	.	.	.	.	.	.	.	.	.	.
8E-\	.	16e- 16c/	.	8cc\J	.	.	.	.	.	.	.	.	.	.	.	.	.	.	.
.	.	16e- 16c/	.	.	.	.	.	.	.	.	.	.	.	.	.	.	.	.	.
8E-\	.	16e- 16c/	.	4.cc\	.	.	.	.	.	.	.	.	.	.	.	.	.	.	.
.	.	16e- 16c/	.	.	.	.	.	.	.	.	.	.	.	.	.	.	.	.	.
8E-\J	.	16e- 16c/	.	.	.	.	.	.	.	.	.	.	.	.	.	.	.	.	.
.	.	16e- 16c/JJ	.	.	.	.	.	.	.	.	.	.	.	.	.	.	.	.	.
8E-\L	.	16e- 16B-/LL	.	.	.	.	.	.	.	.	.	.	.	.	.	.	.	.	.
.	.	16e- 16B-/	.	.	.	.	.	.	.	.	.	.	.	.	.	.	.	.	.
8E-\	.	16e- 16B-/	.	8aa-\L	.	.	.	.	.	.	.	.	.	.	.	.	.	.	.
.	.	16e- 16B-/JJ	.	.	.	.	.	.	.	.	.	.	.	.	.	.	.	.	.
8E-\	.	16f 16B-/LL	.	8ff\	.	.	.	.	.	4f\	.	4ddn\	.	4f\	.	4dd\	4dd\	4ff\	.
.	.	16f 16B-/	.	.	.	.	.	.	.	.	.	.	.	.	.	.	.	.	.
8E-\J	.	16f 16B-/	.	8ddn\J	.	.	.	.	.	.	.	.	.	.	.	.	.	.	.
.	.	16f 16B-/JJ	.	.	.	.	.	.	.	.	.	.	.	.	.	.	.	.	.
*	*	*Xtremolo	*	*	*	*	*	*	*	*	*	*	*	*	*	*	*	*	*
*Xtremolo	*	*	*	*	*	*	*	*	*	*	*	*	*	*	*	*	*	*	*
!	!	!	!	!	!	!	!	!	!	!	!	!	!	!LO:LB:g=original	!	!	!	!	!
=73	=73	=73	=73	=73	=73	=73	=73	=73	=73	=73	=73	=73	=73	=73	=73	=73	=73	=73	=73
8E-\L	.	4g 4B-/	.	4ee-\	.	4E-\	-rum	4e-\	-rum	4g\	-rum.	4ee-\	-rum.	4g\	.	4ee-\	4ee-\	4gg\	.
8e-\	.	.	.	.	.	.	.	.	.	.	.	.	.	.	.	.	.	.	.
(8B-\	.	4ee- 4g\	.	4gg 4b- 4e-/	.	4r	.	4r	.	4r	.	4r	.	4g\	.	4b-\	4b-\	4gg\	.
8G\J)	.	.	.	.	.	.	.	.	.	.	.	.	.	.	.	.	.	.	.
4E-\	.	4ee- 4g\	.	4gg 4b- 4e-/	.	2r	.	2r	.	2r	.	2r	.	4g\	.	4b-\	4b-\	4gg\	.
4r	.	4r	.	4r	.	.	.	.	.	.	.	.	.	4r	.	4r	4r	4r	.
==	==	==	==	==	==	==	==	==	==	==	==	==	==	==	==	==	==	==	==
*-	*-	*-	*-	*-	*-	*-	*-	*-	*-	*-	*-	*-	*-	*-	*-	*-	*-	*-	*-
!!!system-decoration: [(s1,s2)][(s3,s4)][(s5,s6,s7,s8)][(s9,s10)]s11
!!!RDF**kern: | = vertical stroke
!!!AIN: 1 alto 1 bass 2 clarb 2 cor 1 organ 1 soprn 1 tenor 2 violn
!!!ENC: Andrzej Borzym
!!!END: 2020-07-15
!!!ENC: Marta Lawrence
!!!END: 2021-11-22
